!!!!SEGMENT: pl-cz--iii-109--001-006_dankowski-adalbert--missa-c-benedictus.krn
!!!cenid: 18xx:785
!!!COM: Dankowski, Adalbert
!!!COM-rismID: pe30000793
!!!CDT: ~1760-~1836
!!!CNT: Polish
!!!OPR: Missa C
!!!OTL: Benedictus
!!!OMV: 006
!!!PDT:
!!!AGN: Sacred; Vespers
!!!YEC: Copyright 2022 Narodowy Instytut Fryderyka Chopina (https://polishscores.org)
!!!YEM: License CC-BY-4.0 (https://creativecommons.org/licenses/by/4.0)
!!!SMS-siglum: PL-CZ
!!!SMS-shelfmark: III-109
!!!SMS-shelfwork: 001-006 M
!!!SMS-variant:
!!!SMS-altvar:
!!!NIFC-rismSourceID: 300000107
!!!NIFC-rismChildID: 300000107
!!!NIFC-islandoraID: pl-cz:34355
!!!URL-pdf-islandora: https://repozytorium.nifc.pl/islandora/object/pl-cz%3A34355/datastream/PDF/view
!!!URL-scan: https://polish.musicsources.pl/pl/lokalizacje/galeria/rekopisy/6827/1 @EN{Scan on Polish Music Sources Website} @PL{Skany w portalu Dziedzictwo Muzyki Polskiej w otwartym dostępie}
!!!IIIF:
!!!ONB-nifc: UWAGA: części Mszy: Kyrie, Gloria, Patrem, Et resurrexit, Sanctus, Benedictus, Agnus Dei, Dona nobis
!!!OMD: Andante
!!!AIN: 1 alto 3 empty 2 oboe 1 organ 1 tenor 2 violn 1 vox
!!!key:
**kern	**fba	**kern	**dynam	**kern	**dynam	**kern	**dynam	**kern	**kern	**kern	**kern	**text	**kern	**kern	**kern	**dynam	**kern	**dynam
*part11	*	*part11	*	*part10	*	*part9	*	*part8	*part7	*part6	*part5	*	*part4	*part3	*part2	*	*part1	*
*staff12	*	*staff11	*	*staff10	*	*staff9	*	*staff8	*staff7	*staff6	*staff5	*	*staff4	*staff3	*staff2	*	*staff1	*
*Iorgan	*	*Iempty	*	*Ivioln	*	*Ivioln	*	*Iempty	*Itenor	*Ialto	*Ivox	*	*Iempty	*Iempty	*Ioboe	*	*Ioboe	*
*I"Organo	*	*	*	*I"Violino Secondo	*	*I"Violino Primo	*	*I"Baſso	*I"Tenore	*I"Alto	*I"Canto	*	*I"Cornu Secondo Ex C:	*I"Cornu Primo Ex C:	*I"Oboe Secondo	*	*I"Oboe Primo	*
*I'Org.	*	*	*	*I'Vn II	*	*I'Vn I	*	*I'B.	*I'T.	*I'A.	*I'C.	*	*I'C. in F	*I'C. in C	*I'Ob. II	*	*I'Ob. I	*
*clefF4	*	*clefG2	*	*clefG2	*	*clefG2	*	*clefF4	*clefC4	*clefC3	*clefC1	*	*clefG2	*clefG2	*clefG2	*	*clefG2	*
*	*	*	*	*	*	*	*	*	*	*	*	*	*ITrd4c7	*ITrd4c7	*	*	*	*
*k[b-]	*	*k[b-]	*	*k[b-]	*	*k[b-]	*	*k[b-]	*k[b-]	*k[b-]	*k[b-]	*	*k[b-]	*k[b-]	*k[b-]	*	*k[b-]	*
*F:	*	*F:	*	*F:	*	*F:	*	*F:	*F:	*F:	*F:	*	*F:	*F:	*F:	*	*F:	*
*M2/4	*	*M2/4	*	*M2/4	*	*M2/4	*	*M2/4	*M2/4	*M2/4	*M2/4	*	*M2/4	*M2/4	*M2/4	*	*M2/4	*
=1	=1	=1	=1	=1	=1	=1	=1	=1	=1	=1	=1	=1	=1	=1	=1	=1	=1	=1
!	!	!LO:TX:a:t=andan&colon; Solo	!	!LO:TX:a:t=andante Solo	!	!LO:TX:a:t=Andante Solo&colon;	!LO:DY:a	!LO:TX:a:t=Benedictus Tacet	!LO:TX:a:t=Benedictus Tacet	!LO:TX:a:t=Benedictus Tacet	!LO:TX:a:t=Andante Solo	!	!LO:TX:a:t=Benedictus Tacet	!LO:TX:a:t=Benedictus Tacet	!	!	!LO:TX:a:t=Andante	!
!	!	!	!	!	!	!	!	!	!	!	!LO:TX:b:t=23.	!	!	!	!	!	!	!
8F\L	.	(16ff\LL	.	8f/L	.	16a/LL	p	2ryy	2ryy	2ryy	0r	.	2ryy	2ryy	0r	.	0r	.
.	.	16aa\J)	.	.	.	16cc/J	.	.	.	.	.	.	.	.	.	.	.	.
8F\	.	(8.aa\J	.	8f/	.	(8.cc/J	.	.	.	.	.	.	.	.	.	.	.	.
8c\	4	.	.	8e/	.	.	.	.	.	.	.	.	.	.	.	.	.	.
.	.	16ff\LL)	.	.	.	16a/LL)	.	.	.	.	.	.	.	.	.	.	.	.
8c\J	3	(16gg\	.	8e/J	.	(16b-/	.	.	.	.	.	.	.	.	.	.	.	.
.	.	16ee\JJ)	.	.	.	16g/JJ)	.	.	.	.	.	.	.	.	.	.	.	.
=2	=2	=2	=2	=2	=2	=2	=2	=2	=2	=2	=2	=2	=2	=2	=2	=2	=2	=2
!	!	!	!	!	!LO:DY:a:t=pio&colon;	!	!	!	!	!	!	!	!	!	!	!	!	!
8d\L	.	(32gg\LLL	.	8f/L	p	8a/L	.	2ryy	2ryy	2ryy	.	.	2ryy	2ryy	.	.	.	.
.	.	32ff\	.	.	.	.	.	.	.	.	.	.	.	.	.	.	.	.
.	.	32ee\)	.	.	.	.	.	.	.	.	.	.	.	.	.	.	.	.
.	.	32ff'\JJ	.	.	.	.	.	.	.	.	.	.	.	.	.	.	.	.
!	!	!LO:TX:a:t=|	!	!	!	!	!	!	!	!	!	!	!	!	!	!	!	!
16c\L	.	8ff\J	.	8f/	.	(16a/L	.	.	.	.	.	.	.	.	.	.	.	.
16B-\JJ	.	.	.	.	.	16b-/JJ)	.	.	.	.	.	.	.	.	.	.	.	.
8A\L	3	16r	.	8f/	.	8cc\L	.	.	.	.	.	.	.	.	.	.	.	.
.	_	(16ff\LL	.	.	.	.	.	.	.	.	.	.	.	.	.	.	.	.
8A\J	.	16ee\	.	8f/J	.	8cc\J	.	.	.	.	.	.	.	.	.	.	.	.
.	x	16ee-X\JJ)	.	.	.	.	.	.	.	.	.	.	.	.	.	.	.	.
=3	=3	=3	=3	=3	=3	=3	=3	=3	=3	=3	=3	=3	=3	=3	=3	=3	=3	=3
8B-\L	.	(32cc#X\LLL	.	8g/L	.	8b-\L	.	2ryy	2ryy	2ryy	.	.	2ryy	2ryy	.	.	.	.
.	.	32dd\	.	.	.	.	.	.	.	.	.	.	.	.	.	.	.	.
.	.	32cc#\	.	.	.	.	.	.	.	.	.	.	.	.	.	.	.	.
.	.	32dd\JJ)	.	.	.	.	.	.	.	.	.	.	.	.	.	.	.	.
8B-\	.	8.gg\J	.	8g/	.	8dd\	.	.	.	.	.	.	.	.	.	.	.	.
8c\	.	.	.	8g/	.	8b-\	.	.	.	.	.	.	.	.	.	.	.	.
.	.	(32ff\LLL	.	.	.	.	.	.	.	.	.	.	.	.	.	.	.	.
.	.	32gg\JJJ)	.	.	.	.	.	.	.	.	.	.	.	.	.	.	.	.
8c\J	.	(32aa\LLL	.	8g/J	.	8b-\J	.	.	.	.	.	.	.	.	.	.	.	.
.	.	32gg\)	.	.	.	.	.	.	.	.	.	.	.	.	.	.	.	.
.	.	(32ff\	.	.	.	.	.	.	.	.	.	.	.	.	.	.	.	.
.	.	32ee\JJJ)	.	.	.	.	.	.	.	.	.	.	.	.	.	.	.	.
!LO:LB:g=original	!	!	!	!	!	!	!	!	!	!	!	!	!	!	!	!	!	!
=4	=4	=4	=4	=4	=4	=4	=4	=4	=4	=4	=4	=4	=4	=4	=4	=4	=4	=4
8d\L	.	(32gg\LLL	.	8f/L	.	8a/L	.	2ryy	2ryy	2ryy	.	.	2ryy	2ryy	.	.	.	.
.	.	32ff\	.	.	.	.	.	.	.	.	.	.	.	.	.	.	.	.
.	.	32ee\)	.	.	.	.	.	.	.	.	.	.	.	.	.	.	.	.
.	.	32ff\JJ	.	.	.	.	.	.	.	.	.	.	.	.	.	.	.	.
16c\L	.	8ff\J	.	8f/	.	(16a/L	.	.	.	.	.	.	.	.	.	.	.	.
16B-\JJ	.	.	.	.	.	16b-/JJ)	.	.	.	.	.	.	.	.	.	.	.	.
!	!	!	!	!	!	!LO:TX:a:t=|	!	!	!	!	!	!	!	!	!	!	!	!
8A\L	3	16r	.	8f/	.	8cc\L	.	.	.	.	.	.	.	.	.	.	.	.
.	_	(16ff\LL	.	.	.	.	.	.	.	.	.	.	.	.	.	.	.	.
!	!	!	!	!	!	!LO:TX:a:t=|	!	!	!	!	!	!	!	!	!	!	!	!
8A\J	.	16ee\	.	8f/J	.	8cc\J	.	.	.	.	.	.	.	.	.	.	.	.
.	x	16ee-X\JJ)	.	.	.	.	.	.	.	.	.	.	.	.	.	.	.	.
=5	=5	=5	=5	=5	=5	=5	=5	=5	=5	=5	=5	=5	=5	=5	=5	=5	=5	=5
8B-\L	.	(32cc#X\LLL	.	8g/L	.	8b-\L	.	2ryy	2ryy	2ryy	0r	.	2ryy	2ryy	0r	.	0r	.
.	.	32dd\	.	.	.	.	.	.	.	.	.	.	.	.	.	.	.	.
.	.	32cc#\	.	.	.	.	.	.	.	.	.	.	.	.	.	.	.	.
.	.	32dd\JJ)	.	.	.	.	.	.	.	.	.	.	.	.	.	.	.	.
8B-\	.	8.gg\J	.	8g/	.	8dd\	.	.	.	.	.	.	.	.	.	.	.	.
8c\	.	.	.	8g/	.	8b-\	.	.	.	.	.	.	.	.	.	.	.	.
.	.	(32ff\LLL	.	.	.	.	.	.	.	.	.	.	.	.	.	.	.	.
.	.	32gg\JJJ)	.	.	.	.	.	.	.	.	.	.	.	.	.	.	.	.
8c\J	.	(32aa\LLL	.	8g/J	.	8b-\J	.	.	.	.	.	.	.	.	.	.	.	.
.	.	32gg\)	.	.	.	.	.	.	.	.	.	.	.	.	.	.	.	.
.	.	(32ff\	.	.	.	.	.	.	.	.	.	.	.	.	.	.	.	.
.	.	32ee\JJJ)	.	.	.	.	.	.	.	.	.	.	.	.	.	.	.	.
!	!	!	!	!	!	!LO:LB:g=original	!	!	!	!	!	!	!	!	!	!	!	!
=6	=6	=6	=6	=6	=6	=6	=6	=6	=6	=6	=6	=6	=6	=6	=6	=6	=6	=6
!LO:TX:t=P:problem=mixed beam	!	!	!	!	!	!	!	!	!	!	!	!	!	!	!	!	!	!
8F\L	.	(16ff\LL	.	8f/L	.	8a/L	.	2ryy	2ryy	2ryy	.	.	2ryy	2ryy	.	.	.	.
.	.	16cc\J)	.	.	.	.	.	.	.	.	.	.	.	.	.	.	.	.
!	!	!LO:TX:a:t=|	!	!	!	!	!	!	!	!	!	!	!	!	!	!	!	!
8FF/J	.	8cc\J	.	8f/J	.	8a/J	.	.	.	.	.	.	.	.	.	.	.	.
8r	.	(32ff\LLL	.	8r	.	8r	.	.	.	.	.	.	.	.	.	.	.	.
.	.	32ee\	.	.	.	.	.	.	.	.	.	.	.	.	.	.	.	.
.	.	32ff\	.	.	.	.	.	.	.	.	.	.	.	.	.	.	.	.
.	.	32gg\JJJ)	.	.	.	.	.	.	.	.	.	.	.	.	.	.	.	.
8F\	3	(32ff\LLL	.	8c/	.	8a/	.	.	.	.	.	.	.	.	.	.	.	.
.	.	32ee\)	.	.	.	.	.	.	.	.	.	.	.	.	.	.	.	.
.	.	32dd\	.	.	.	.	.	.	.	.	.	.	.	.	.	.	.	.
.	.	32cc\JJJ	.	.	.	.	.	.	.	.	.	.	.	.	.	.	.	.
!LO:LB:g=original	!	!	!	!LO:LB:g=original	!	!	!	!	!	!	!	!	!	!	!	!	!	!
=7	=7	=7	=7	=7	=7	=7	=7	=7	=7	=7	=7	=7	=7	=7	=7	=7	=7	=7
8G\L	.	16cc\LL	.	8c/L	.	8e/L	.	2ryy	2ryy	2ryy	.	.	2ryy	2ryy	.	.	.	.
.	.	16b-\J	.	.	.	.	.	.	.	.	.	.	.	.	.	.	.	.
8G\J	.	8b-\J	.	8c/J	.	8e/J	.	.	.	.	.	.	.	.	.	.	.	.
8r	.	(32b-\LLL	.	8r	.	8r	.	.	.	.	.	.	.	.	.	.	.	.
.	.	32cc\	.	.	.	.	.	.	.	.	.	.	.	.	.	.	.	.
.	.	32ee\)	.	.	.	.	.	.	.	.	.	.	.	.	.	.	.	.
.	.	32ff\JJJ	.	.	.	.	.	.	.	.	.	.	.	.	.	.	.	.
8E\	3	(32gg\LLL	.	8c/	.	8g/	.	.	.	.	.	.	.	.	.	.	.	.
.	.	32ee\)	.	.	.	.	.	.	.	.	.	.	.	.	.	.	.	.
.	.	(32cc\	.	.	.	.	.	.	.	.	.	.	.	.	.	.	.	.
.	.	32b-\JJJ)	.	.	.	.	.	.	.	.	.	.	.	.	.	.	.	.
=8	=8	=8	=8	=8	=8	=8	=8	=8	=8	=8	=8	=8	=8	=8	=8	=8	=8	=8
8F\L	.	16b-/LL	.	8c/L	.	(16g/LL	.	2ryy	2ryy	2ryy	.	.	2ryy	2ryy	.	.	.	.
.	.	16a/J	.	.	.	16f/J)	.	.	.	.	.	.	.	.	.	.	.	.
8F\J	.	8a/J	.	8c/J	.	8f/J	.	.	.	.	.	.	.	.	.	.	.	.
8r	.	(32ff\LLL	.	8r	.	8r	.	.	.	.	.	.	.	.	.	.	.	.
.	.	32ee\)	.	.	.	.	.	.	.	.	.	.	.	.	.	.	.	.
.	.	(32gg\	.	.	.	.	.	.	.	.	.	.	.	.	.	.	.	.
.	.	32ff\JJJ)	.	.	.	.	.	.	.	.	.	.	.	.	.	.	.	.
8A\	.	(32ee\LLL	.	8c/	.	8a/	.	.	.	.	.	.	.	.	.	.	.	.
.	.	32ee-X\	.	.	.	.	.	.	.	.	.	.	.	.	.	.	.	.
.	.	32dd\)	.	.	.	.	.	.	.	.	.	.	.	.	.	.	.	.
.	.	32cc\JJJ	.	.	.	.	.	.	.	.	.	.	.	.	.	.	.	.
=9	=9	=9	=9	=9	=9	=9	=9	=9	=9	=9	=9	=9	=9	=9	=9	=9	=9	=9
8B-\L	3	(32cc#X\LLL	.	8d/L	.	8b-/L	.	2ryy	2ryy	2ryy	0r	.	2ryy	2ryy	2r	.	2r	.
.	.	32dd\	.	.	.	.	.	.	.	.	.	.	.	.	.	.	.	.
.	.	32cc#\)	.	.	.	.	.	.	.	.	.	.	.	.	.	.	.	.
.	.	32dd\JJJ	.	.	.	.	.	.	.	.	.	.	.	.	.	.	.	.
8B-\J	_	(32ee-X\LLL	.	8d/	.	8b-/	.	.	.	.	.	.	.	.	.	.	.	.
.	.	32een\	.	.	.	.	.	.	.	.	.	.	.	.	.	.	.	.
.	.	32ff\)	.	.	.	.	.	.	.	.	.	.	.	.	.	.	.	.
.	x	32ff#X\JJJ	.	.	.	.	.	.	.	.	.	.	.	.	.	.	.	.
!LO:LB:g=original	!	!	!	!	!	!	!	!	!	!	!	!	!	!	!	!	!	!
8B-\L	3	(32gg\LLL	.	8d/	.	8b-/	.	.	.	.	.	.	.	.	.	.	.	.
.	_	32ff#\	.	.	.	.	.	.	.	.	.	.	.	.	.	.	.	.
.	.	32gg\)	.	.	.	.	.	.	.	.	.	.	.	.	.	.	.	.
.	.	32aa\	.	.	.	.	.	.	.	.	.	.	.	.	.	.	.	.
8Bn\J	.	32gg\	.	8d/J	.	8a/J	.	.	.	.	.	.	.	.	.	.	.	.
.	x	(32ffn\	.	.	.	.	.	.	.	.	.	.	.	.	.	.	.	.
.	.	32ee\	.	.	.	.	.	.	.	.	.	.	.	.	.	.	.	.
.	.	32ff\JJJ)	.	.	.	.	.	.	.	.	.	.	.	.	.	.	.	.
=10	=10	=10	=10	=10	=10	=10	=10	=10	=10	=10	=10	=10	=10	=10	=10	=10	=10	=10
!LO:TX:t=P:problem=mixed beam	!	!	!	!	!	!	!	!	!	!	!	!	!	!	!	!	!	!
.	.	.	.	.	.	8qb-/	.	.	.	.	.	.	.	.	.	.	.	.
8c\L	.	16ff\LL	.	8c/L	.	16a/LL	.	2ryy	2ryy	2ryy	.	.	2ryy	2ryy	4r	.	4r	.
.	.	32ee\L	.	.	.	32g/L	.	.	.	.	.	.	.	.	.	.	.	.
.	.	32ff\JJ	.	.	.	32a/JJ	.	.	.	.	.	.	.	.	.	.	.	.
8C/J	.	8ee\J	.	8c/J	.	8g/J	.	.	.	.	.	.	.	.	.	.	.	.
!	!	!	!	!	!	!LO:TX:a:t=dolce&colon;	!	!	!	!	!	!	!	!	!	!LO:DY:a	!	!LO:DY:a
8c\L	3	4r	.	16r	.	16r	.	.	.	.	.	.	.	.	4cc\	f	4cc\	f
!	!	!	!	!LO:TX:b:t=|	!	!	!	!	!	!	!	!	!	!	!	!	!	!
!	!	!	!	!LO:TX:a:t=dolce&colon;	!	!	!	!	!	!	!	!	!	!	!	!	!	!
.	_	.	.	16e/LL	.	16ee\LL	.	.	.	.	.	.	.	.	.	.	.	.
!	!	!	!	!LO:TX:b:t=|	!	!LO:TX:a:t=|	!	!	!	!	!	!	!	!	!	!	!	!
8B-X\J	.	.	.	16e/	.	16ee\	.	.	.	.	.	.	.	.	.	.	.	.
!	!	!	!	!LO:TX:b:t=|	!	!LO:TX:a:t=|	!	!	!	!	!	!	!	!	!	!	!	!
.	x	.	.	16e/JJ	.	16ee\JJ	.	.	.	.	.	.	.	.	.	.	.	.
!	!	!	!	!	!	!LO:LB:g=original	!	!	!	!	!	!	!	!	!	!	!	!
=11	=11	=11	=11	=11	=11	=11	=11	=11	=11	=11	=11	=11	=11	=11	=11	=11	=11	=11
*	*	*	*	*	*	*	*	*	*	*	*	*	*	*	*2\right	*	*2\right	*
8A\L	6	2ryy	.	(32f/LLL	.	(32ff\LLL	.	2ryy	2ryy	2ryy	.	.	2ryy	2ryy	2cc\	.	2cc\	.
.	_	.	.	32e/	.	32ee\	.	.	.	.	.	.	.	.	.	.	.	.
.	.	.	.	32f/	.	32ff\	.	.	.	.	.	.	.	.	.	.	.	.
.	.	.	.	32g/JJ)	.	32gg\JJ)	.	.	.	.	.	.	.	.	.	.	.	.
!	!	!	!	!LO:TX:b:t=|	!	!LO:TX:a:t=|	!	!	!	!	!	!	!	!	!	!	!	!
8c\	.	.	.	8a/J	.	8aa\J	.	.	.	.	.	.	.	.	.	.	.	.
8A\	.	.	.	16r	.	16r	.	.	.	.	.	.	.	.	.	.	.	.
!	!	!	!	!LO:TX:b:t=|	!	!LO:TX:a:t=|	!	!	!	!	!	!	!	!	!	!	!	!
.	.	.	.	16f/LL	.	16ff\LL	.	.	.	.	.	.	.	.	.	.	.	.
!	!	!	!	!LO:TX:b:t=|	!	!LO:TX:a:t=|	!	!	!	!	!	!	!	!	!	!	!	!
8F\J	.	.	.	16a/	.	16aa\	.	.	.	.	.	.	.	.	.	.	.	.
!	!	!	!	!LO:TX:b:t=|	!	!LO:TX:a:t=|	!	!	!	!	!	!	!	!	!	!	!	!
.	x	.	.	16cc/JJ	.	16ccc\JJ	.	.	.	.	.	.	.	.	.	.	.	.
!	!	!	!	!LO:LB:g=original	!	!	!	!	!	!	!	!	!	!	!	!	!	!
=12	=12	=12	=12	=12	=12	=12	=12	=12	=12	=12	=12	=12	=12	=12	=12	=12	=12	=12
8E\L	6 5	2ryy	.	(16cc/LL	.	(16ccc\LL	.	2ryy	2ryy	2ryy	.	.	2ryy	2ryy	2cc\	.	2cc\	.
.	.	.	.	16b-/J)	.	16bb-\J)	.	.	.	.	.	.	.	.	.	.	.	.
!	!	!	!	!LO:TX:b:t=|	!	!LO:TX:a:t=|	!	!	!	!	!	!	!	!	!	!	!	!
8C\	.	.	.	8g/J	.	8gg\J	.	.	.	.	.	.	.	.	.	.	.	.
8c\	3	.	.	16r	.	16r	.	.	.	.	.	.	.	.	.	.	.	.
!	!	!	!	!LO:TX:b:t=|	!	!LO:TX:a:t=|	!	!	!	!	!	!	!	!	!	!	!	!
.	_	.	.	16e/LL	.	16ee\LL	.	.	.	.	.	.	.	.	.	.	.	.
!	!	!	!	!LO:TX:b:t=|	!	!LO:TX:a:t=|	!	!	!	!	!	!	!	!	!	!	!	!
8B-\J	.	.	.	16e/	.	16ee\	.	.	.	.	.	.	.	.	.	.	.	.
!	!	!	!	!LO:TX:b:t=|	!	!LO:TX:a:t=|	!	!	!	!	!	!	!	!	!	!	!	!
.	x	.	.	16e/JJ	.	16ee\JJ	.	.	.	.	.	.	.	.	.	.	.	.
=13	=13	=13	=13	=13	=13	=13	=13	=13	=13	=13	=13	=13	=13	=13	=13	=13	=13	=13
8A\L	6	2ryy	.	(32f/LLL	.	(32ff\LLL	.	2ryy	2ryy	2ryy	0r	.	2ryy	2ryy	2cc\	.	2cc\	.
.	_	.	.	32e/	.	32ee\	.	.	.	.	.	.	.	.	.	.	.	.
.	.	.	.	32f/)	.	32ff\)	.	.	.	.	.	.	.	.	.	.	.	.
.	.	.	.	32g/JJ	.	32gg\JJ	.	.	.	.	.	.	.	.	.	.	.	.
!	!	!	!	!LO:TX:b:t=|	!	!LO:TX:a:t=|	!	!	!	!	!	!	!	!	!	!	!	!
8c\	.	.	.	8a/J	.	8aa\J	.	.	.	.	.	.	.	.	.	.	.	.
8A\	.	.	.	16r	.	16r	.	.	.	.	.	.	.	.	.	.	.	.
!	!	!	!	!LO:TX:b:t=|	!	!LO:TX:a:t=|	!	!	!	!	!	!	!	!	!	!	!	!
.	x	.	.	16f/LL	.	16ff\LL	.	.	.	.	.	.	.	.	.	.	.	.
!	!	!	!	!LO:TX:b:t=|	!	!LO:TX:a:t=|	!	!	!	!	!	!	!	!	!	!	!	!
8F\J	.	.	.	16a/	.	16aa\	.	.	.	.	.	.	.	.	.	.	.	.
!	!	!	!	!LO:TX:b:t=|	!	!LO:TX:a:t=|	!	!	!	!	!	!	!	!	!	!	!	!
.	.	.	.	16cc/JJ	.	16ccc\JJ	.	.	.	.	.	.	.	.	.	.	.	.
!LO:LB:g=original	!	!	!	!	!	!	!	!	!	!	!	!	!	!	!	!	!	!
=14	=14	=14	=14	=14	=14	=14	=14	=14	=14	=14	=14	=14	=14	=14	=14	=14	=14	=14
8E\L	6 5	2ryy	.	(16cc/LL	.	(16ccc\LL	.	2ryy	2ryy	2ryy	.	.	2ryy	2ryy	2cc\	.	2cc\	.
.	.	.	.	16b-/J)	.	16bb-\J)	.	.	.	.	.	.	.	.	.	.	.	.
!	!	!	!	!LO:TX:b:t=|	!	!LO:TX:a:t=|	!	!	!	!	!	!	!	!	!	!	!	!
8C\	.	.	.	8g/J	.	8gg\J	.	.	.	.	.	.	.	.	.	.	.	.
8c\	3	.	.	16r	.	16r	.	.	.	.	.	.	.	.	.	.	.	.
!	!	!	!	!LO:TX:b:t=|	!	!LO:TX:a:t=|	!	!	!	!	!	!	!	!	!	!	!	!
.	_	.	.	16e/LL	.	16ee\LL	.	.	.	.	.	.	.	.	.	.	.	.
!	!	!	!	!LO:TX:b:t=|	!	!LO:TX:a:t=|	!	!	!	!	!	!	!	!	!	!	!	!
8B-\J	.	.	.	16e/	.	16ee\	.	.	.	.	.	.	.	.	.	.	.	.
!	!	!	!	!LO:TX:b:t=|	!	!LO:TX:a:t=|	!	!	!	!	!	!	!	!	!	!	!	!
.	x	.	.	16e/JJ	.	16ee\JJ	.	.	.	.	.	.	.	.	.	.	.	.
!	!	!	!	!	!	!LO:LB:g=original	!	!	!	!	!	!	!	!	!	!	!	!
=15	=15	=15	=15	=15	=15	=15	=15	=15	=15	=15	=15	=15	=15	=15	=15	=15	=15	=15
8A\L	6	2ryy	.	(16f/LL	.	16ff\LL	.	2ryy	2ryy	2ryy	.	.	2ryy	2ryy	2cc\	.	2cc\	.
.	_	.	.	16a/JJ)	.	16aa\JJ	.	.	.	.	.	.	.	.	.	.	.	.
8A\	.	.	.	4cc\	.	4ccc\	.	.	.	.	.	.	.	.	.	.	.	.
8A\	.	.	.	.	.	.	.	.	.	.	.	.	.	.	.	.	.	.
8A\J	x	.	.	32b-/LLL	.	32bb-\LLL	.	.	.	.	.	.	.	.	.	.	.	.
.	.	.	.	(32a/	.	(32aa\	.	.	.	.	.	.	.	.	.	.	.	.
.	.	.	.	32g/	.	32gg\	.	.	.	.	.	.	.	.	.	.	.	.
.	.	.	.	32f/JJJ)	.	32ff\JJJ)	.	.	.	.	.	.	.	.	.	.	.	.
=16	=16	=16	=16	=16	=16	=16	=16	=16	=16	=16	=16	=16	=16	=16	=16	=16	=16	=16
8B-\L	3	2ryy	.	(16e/LL	.	(16ee\LL	.	2ryy	2ryy	2ryy	.	.	2ryy	2ryy	8b-\L	.	8dd\L	.
.	.	.	.	16d/J)	.	16dd\J)	.	.	.	.	.	.	.	.	.	.	.	.
!	!	!	!	!LO:TX:b:t=|	!	!	!	!	!	!	!	!	!	!	!	!	!	!
16B-\L	.	.	.	8d/J	.	(8.dd\J	.	.	.	.	.	.	.	.	16b-\L	.	16dd\L	.
16A\JJ	.	.	.	.	.	.	.	.	.	.	.	.	.	.	16a\JJ	.	16cc\JJ	.
!	!	!	!	!LO:LB:g=original	!	!	!	!	!	!	!	!	!	!	!	!	!	!
8B-\L	.	.	.	(16d/LL	.	.	.	.	.	.	.	.	.	.	8b-\L	.	8dd\L	.
.	.	.	.	32c/L	.	32cc\LLL	.	.	.	.	.	.	.	.	.	.	.	.
.	.	.	.	32d/JJJ)	.	32dd\JJJ)	.	.	.	.	.	.	.	.	.	.	.	.
8G\J	6 3	.	.	32f/LLL	.	(32ff\LLL	.	.	.	.	.	.	.	.	8b-\J	.	8ee\J	.
.	.	.	.	(32e/	.	32ee\	.	.	.	.	.	.	.	.	.	.	.	.
.	.	.	.	(32d/)	.	32dd\	.	.	.	.	.	.	.	.	.	.	.	.
.	.	.	.	32e/JJJ)	.	32ee\JJJ)	.	.	.	.	.	.	.	.	.	.	.	.
!	!	!	!	!	!	!	!	!	!	!	!	!	!	!	!LO:LB:g=original	!	!	!
=17	=17	=17	=17	=17	=17	=17	=17	=17	=17	=17	=17	=17	=17	=17	=17	=17	=17	=17
!LO:TX:t=P:problem=mixed beam	!	!	!	!LO:TUP:a:problem=klamra łukowa	!	!LO:TUP:a:problem=klamra łukowa	!	!	!	!	!	!	!	!	!	!	!	!
8F\L	.	2ryy	.	24f/LL	.	24ff\LL	.	2ryy	2ryy	2ryy	0r	.	2ryy	2ryy	8a/L	.	8ff\L	.
.	.	.	.	24a/	.	24aa\	.	.	.	.	.	.	.	.	.	.	.	.
.	.	.	.	24cc/JJ	.	24ccc\JJ	.	.	.	.	.	.	.	.	.	.	.	.
!	!	!	!	!LO:TUP:a:problem=klamra łukowa	!	!LO:TUP:a:problem=klamra łukowa	!	!	!	!	!	!	!	!	!	!	!	!
8B-\	6	.	.	24dd\LL	.	24bb-\LL	.	.	.	.	.	.	.	.	8b-/	.	8gg\	.
.	.	.	.	24cc\	.	24aa\	.	.	.	.	.	.	.	.	.	.	.	.
.	.	.	.	24a\JJ	.	24gg\JJ	.	.	.	.	.	.	.	.	.	.	.	.
8c\	4	.	.	8a/L	.	8ff\L	.	.	.	.	.	.	.	.	8a/	.	8ff\	.
8C/J	3	.	.	8g/J	.	8ee\J	.	.	.	.	.	.	.	.	8g/J	.	8ee\J	.
!	!	!	!	!	!	!	!	!	!	!	!	!	!	!	!	!	!LO:LB:g=original	!
=18	=18	=18	=18	=18	=18	=18	=18	=18	=18	=18	=18	=18	=18	=18	=18	=18	=18	=18
!	!	!	!	!	!LO:DY:a	!LO:TX:t=P:problem=mixed beam	!	!	!	!	!	!	!	!	!	!	!	!
8F\L	.	(32ff\LLL	.	8a/L	p	8ff\L	.	2ryy	2ryy	2ryy	.	.	2ryy	2ryy	4a/	.	4ff\	.
.	.	32ee\	.	.	.	.	.	.	.	.	.	.	.	.	.	.	.	.
.	.	32ff\)	.	.	.	.	.	.	.	.	.	.	.	.	.	.	.	.
.	.	32gg\J	.	.	.	.	.	.	.	.	.	.	.	.	.	.	.	.
!	!	!LO:TX:a:t=|	!	!	!	!	!LO:DY:a	!	!	!	!	!	!	!	!	!	!	!
8A\	3	16ff\	.	8c/	.	8f/	p	.	.	.	.	.	.	.	.	.	.	.
!	!	!LO:TX:a:t=|	!	!	!	!	!	!	!	!	!	!	!	!	!	!	!	!
.	.	16ff\JJ	.	.	.	.	.	.	.	.	.	.	.	.	.	.	.	.
8A\	_	(32ff\LLL	.	8c/	.	8f/	.	.	.	.	.	.	.	.	4r	.	4r	.
.	.	32ee\)	.	.	.	.	.	.	.	.	.	.	.	.	.	.	.	.
.	.	(32aa\	.	.	.	.	.	.	.	.	.	.	.	.	.	.	.	.
.	.	32gg\)	.	.	.	.	.	.	.	.	.	.	.	.	.	.	.	.
8A\J	x	(32ff\	.	8c/J	.	8f/J	.	.	.	.	.	.	.	.	.	.	.	.
.	.	32ee\)	.	.	.	.	.	.	.	.	.	.	.	.	.	.	.	.
.	.	(32dd\	.	.	.	.	.	.	.	.	.	.	.	.	.	.	.	.
.	.	32cc\JJJ)	.	.	.	.	.	.	.	.	.	.	.	.	.	.	.	.
!LO:LB:g=original	!	!	!	!	!	!	!	!	!	!	!	!	!	!	!	!	!	!
=19	=19	=19	=19	=19	=19	=19	=19	=19	=19	=19	=19	=19	=19	=19	=19	=19	=19	=19
8B-\L	.	(16cc#X\LL	.	8d/L	.	8f/L	.	2ryy	2ryy	2ryy	.	.	2ryy	2ryy	1r	.	1r	.
.	.	16dd\J)	.	.	.	.	.	.	.	.	.	.	.	.	.	.	.	.
8B-\	.	8ddw\J	.	8d/	.	8f/	.	.	.	.	.	.	.	.	.	.	.	.
8B-\	3	(32dd\LLL	.	8d/	.	8g/	.	.	.	.	.	.	.	.	.	.	.	.
.	.	32ee\	.	.	.	.	.	.	.	.	.	.	.	.	.	.	.	.
.	.	32ff\	.	.	.	.	.	.	.	.	.	.	.	.	.	.	.	.
.	.	32gg\JJJ)	.	.	.	.	.	.	.	.	.	.	.	.	.	.	.	.
8B-\J	2	(32ff\LLL	.	8c/J	.	8g/J	.	.	.	.	.	.	.	.	.	.	.	.
.	.	32ee\	.	.	.	.	.	.	.	.	.	.	.	.	.	.	.	.
.	.	32dd\	.	.	.	.	.	.	.	.	.	.	.	.	.	.	.	.
.	.	32ee\JJJ)	.	.	.	.	.	.	.	.	.	.	.	.	.	.	.	.
!	!	!	!	!	!	!LO:LB:g=original	!	!	!	!	!	!	!	!	!	!	!	!
=20	=20	=20	=20	=20	=20	=20	=20	=20	=20	=20	=20	=20	=20	=20	=20	=20	=20	=20
!LO:TX:t=P:problem=mixed beam	!	!	!	!	!	!	!	!	!	!	!	!	!	!	!	!	!	!
8A\L	3	(32ff\LLL	.	8c/L	.	8a/L	.	2ryy	2ryy	2ryy	.	.	2ryy	2ryy	.	.	.	.
.	.	32ee\	.	.	.	.	.	.	.	.	.	.	.	.	.	.	.	.
.	.	32ff\	.	.	.	.	.	.	.	.	.	.	.	.	.	.	.	.
.	.	32ff#X\JJJ)	.	.	.	.	.	.	.	.	.	.	.	.	.	.	.	.
8B-\	3	(32gg\LLL	.	8d/	.	8b-/	.	.	.	.	.	.	.	.	.	.	.	.
.	.	32aa\	.	.	.	.	.	.	.	.	.	.	.	.	.	.	.	.
.	.	32bb-\	.	.	.	.	.	.	.	.	.	.	.	.	.	.	.	.
.	.	32gg\JJJ)	.	.	.	.	.	.	.	.	.	.	.	.	.	.	.	.
8c\	.	8ffn\L	.	8c/	.	8a/	.	.	.	.	.	.	.	.	.	.	.	.
8C/J	.	8eet\J	.	8c/J	.	8g/J	.	.	.	.	.	.	.	.	.	.	.	.
=21	=21	=21	=21	=21	=21	=21	=21	=21	=21	=21	=21	=21	=21	=21	=21	=21	=21	=21
!	!	!	!	!LO:TX:a:t=meza Voce	!	!	!	!	!	!	!	!	!	!	!	!	!	!
8F\L	.	(16.ff\LL	.	8c/L	.	(16.a/LL	.	2ryy	2ryy	2ryy	1r	.	2ryy	2ryy	8r	.	8r	.
.	.	32aa\JJk)	.	.	.	32cc/JJk)	.	.	.	.	.	.	.	.	.	.	.	.
!	!	!	!	!	!	!	!	!	!	!	!	!	!	!	!	!LO:DY:a	!	!LO:DY:a:t=pio&colon;
8F\	.	16r	.	8c/	.	16r	.	.	.	.	.	.	.	.	8a/L	p	8cc\L	p
.	.	16ccW\	.	.	.	16aW/	.	.	.	.	.	.	.	.	.	.	.	.
8F\	.	(16dd\LL	.	8d/	.	(16b-/LL	.	.	.	.	.	.	.	.	(8b-/	.	8dd\	.
.	.	16ff\)	.	.	.	16dd/	.	.	.	.	.	.	.	.	.	.	.	.
8F\J	.	(16ee\	.	8e/J	.	(16g/)	.	.	.	.	.	.	.	.	8g/J)	.	8ee\J	.
.	.	16gg\JJ)	.	.	.	16b-/JJ)	.	.	.	.	.	.	.	.	.	.	.	.
!LO:LB:g=original	!	!	!	!	!	!	!	!	!	!	!	!	!	!	!	!	!	!
=22	=22	=22	=22	=22	=22	=22	=22	=22	=22	=22	=22	=22	=22	=22	=22	=22	=22	=22
8F\L	.	(16.ff\LL	.	8f/L	.	(16.a/LL	.	2ryy	2ryy	2ryy	.	.	2ryy	2ryy	8a/L	.	(8ff\L	.
.	.	32aa\JJk)	.	.	.	32cc/JJk)	.	.	.	.	.	.	.	.	.	.	.	.
8F\	.	16r	.	8c/	.	16r	.	.	.	.	.	.	.	.	(8a/	.	8cc\	.
.	.	16ccW\	.	.	.	16aW/	.	.	.	.	.	.	.	.	.	.	.	.
8F\	.	(16dd\LL	.	8d/	.	(16b-/LL	.	.	.	.	.	.	.	.	8b-/	.	8dd\)	.
.	.	16ff\)	.	.	.	16dd/	.	.	.	.	.	.	.	.	.	.	.	.
8F\J	.	(16ee\	.	8e/J	.	(16g/)	.	.	.	.	.	.	.	.	8g/J)	.	8ee\J	.
.	.	16gg\JJ)	.	.	.	16b-/JJ)	.	.	.	.	.	.	.	.	.	.	.	.
!	!	!	!	!LO:LB:g=original	!	!	!	!	!	!	!	!	!	!	!	!	!	!
=23	=23	=23	=23	=23	=23	=23	=23	=23	=23	=23	=23	=23	=23	=23	=23	=23	=23	=23
!LO:TX:t=P:problem=mixed beam	!	!	!	!	!	!	!	!	!	!	!	!	!	!	!	!	!	!
8F\L	.	(4gg\	.	4e/	.	(4b-/	.	2ryy	2ryy	2ryy	2r	.	2ryy	2ryy	(4g/	.	(4ee\	.
8FF/	.	.	.	.	.	.	.	.	.	.	.	.	.	.	.	.	.	.
8F\J	.	8ff\)	.	8f/	.	8a/)	.	.	.	.	.	.	.	.	8a/)	.	8ff\)	.
!	!	!	!	!LO:TX:b:t=Verte	!	!	!	!	!	!	!	!	!	!	!	!	!	!
8r	.	8r	.	8r	.	8r	.	.	.	.	.	.	.	.	8r	.	8r	.
!	!	!	!	!LO:PB:g=original	!	!	!	!	!	!	!	!	!	!	!	!	!	!
=24	=24	=24	=24	=24	=24	=24	=24	=24	=24	=24	=24	=24	=24	=24	=24	=24	=24	=24
!	!	!	!LO:DY:t=pio&colon;	!	!LO:DY:a	!	!LO:DY:a:rj	!	!	!	!	!	!	!	!	!	!	!
8F\L	.	2ryy	p	8f/L	p	(16a/LL	p	2ryy	2ryy	2ryy	16ff\LL	Be-	2ryy	2ryy	0r	.	0r	.
.	.	.	.	.	.	16cc/J	.	.	.	.	16aa\J	.	.	.	.	.	.	.
8F\J	.	.	.	8f/	.	(8.cc/J)	.	.	.	.	8.aa\J	.	.	.	.	.	.	.
8C/L	4	.	.	8f/	.	.	.	.	.	.	.	.	.	.	.	.	.	.
.	.	.	.	.	.	16a/LL)	.	.	.	.	16ff\	.	.	.	.	.	.	.
8C/J	3	.	.	8e/J	.	(16b-/	.	.	.	.	16gg\LL	-ne-	.	.	.	.	.	.
.	.	.	.	.	.	16g/JJ)	.	.	.	.	16ee\JJ	.	.	.	.	.	.	.
!	!	!	!	!	!	!LO:LB:g=original	!	!	!	!	!	!	!	!	!	!	!	!
=25	=25	=25	=25	=25	=25	=25	=25	=25	=25	=25	=25	=25	=25	=25	=25	=25	=25	=25
8D/L	.	2ryy	.	8f/L	.	8a/L	.	2ryy	2ryy	2ryy	16gg\LL	-di-	2ryy	2ryy	.	.	.	.
.	.	.	.	.	.	.	.	.	.	.	16ff\JJ	.	.	.	.	.	.	.
16C/L	.	.	.	8f/	.	16a/L	.	.	.	.	8ff\	-ctus	.	.	.	.	.	.
16BB-/JJ	.	.	.	.	.	16b-/JJ	.	.	.	.	.	.	.	.	.	.	.	.
8AA/L	6 3	.	.	8f/	.	8cc\L	.	.	.	.	16r	.	.	.	.	.	.	.
.	_ _	.	.	.	.	.	.	.	.	.	16ff\	qui	.	.	.	.	.	.
8AA/J	.	.	.	8f/J	.	8cc\J	.	.	.	.	16ee\LL	ve-	.	.	.	.	.	.
.	x	.	.	.	.	.	.	.	.	.	16ee-X\JJ	.	.	.	.	.	.	.
!LO:LB:g=original	!	!	!	!	!	!	!	!	!	!	!LO:LB:g=original	!	!	!	!	!	!	!
=26	=26	=26	=26	=26	=26	=26	=26	=26	=26	=26	=26	=26	=26	=26	=26	=26	=26	=26
8BB-/L	6	2ryy	.	8g/L	.	8b-\L	.	2ryy	2ryy	2ryy	32cc#X\LLL	.	2ryy	2ryy	.	.	.	.
.	_	.	.	.	.	.	.	.	.	.	32dd\	.	.	.	.	.	.	.
.	.	.	.	.	.	.	.	.	.	.	32cc#\	.	.	.	.	.	.	.
.	.	.	.	.	.	.	.	.	.	.	32dd\JJ	.	.	.	.	.	.	.
8BB-/	.	.	.	8g/	.	8dd\	.	.	.	.	8.gg\J	.	.	.	.	.	.	.
8C/	x	.	.	8g/	.	8b-\	.	.	.	.	.	.	.	.	.	.	.	.
.	.	.	.	.	.	.	.	.	.	.	32ff\LLL	.	.	.	.	.	.	.
.	.	.	.	.	.	.	.	.	.	.	32gg\JJJ	.	.	.	.	.	.	.
8C/J	.	.	.	8g/J	.	8b-\J	.	.	.	.	32aa\LLL	-nit	.	.	.	.	.	.
.	.	.	.	.	.	.	.	.	.	.	32gg\JJJ	.	.	.	.	.	.	.
.	.	.	.	.	.	.	.	.	.	.	32ff\LLL	qui	.	.	.	.	.	.
.	.	.	.	.	.	.	.	.	.	.	32ee\JJJ	.	.	.	.	.	.	.
=27	=27	=27	=27	=27	=27	=27	=27	=27	=27	=27	=27	=27	=27	=27	=27	=27	=27	=27
8D/L	.	2ryy	.	8f/L	.	8a/L	.	2ryy	2ryy	2ryy	32gg\LLL	ve-	2ryy	2ryy	.	.	.	.
.	.	.	.	.	.	.	.	.	.	.	32ff\	.	.	.	.	.	.	.
.	.	.	.	.	.	.	.	.	.	.	32ee\	.	.	.	.	.	.	.
.	.	.	.	.	.	.	.	.	.	.	32ff\JJJ	.	.	.	.	.	.	.
16C/L	.	.	.	8f/	.	16a/L	.	.	.	.	8ff\	-nit	.	.	.	.	.	.
16BB-/JJ	.	.	.	.	.	16b-/JJ	.	.	.	.	.	.	.	.	.	.	.	.
8AA/L	6 3	.	.	8f/	.	8cc\L	.	.	.	.	16r	.	.	.	.	.	.	.
.	_ _	.	.	.	.	.	.	.	.	.	16ff\	in	.	.	.	.	.	.
8AA/J	.	.	.	8f/J	.	8cc\J	.	.	.	.	16ee\LL	no-	.	.	.	.	.	.
.	x	.	.	.	.	.	.	.	.	.	16ee-X\JJ	.	.	.	.	.	.	.
=28	=28	=28	=28	=28	=28	=28	=28	=28	=28	=28	=28	=28	=28	=28	=28	=28	=28	=28
8BB-/L	6	2ryy	.	8g/L	.	8b-\L	.	2ryy	2ryy	2ryy	32cc#X\LLL	.	2ryy	2ryy	2r	.	2r	.
.	.	.	.	.	.	.	.	.	.	.	32dd\	.	.	.	.	.	.	.
.	.	.	.	.	.	.	.	.	.	.	32cc#\	.	.	.	.	.	.	.
.	.	.	.	.	.	.	.	.	.	.	32dd\JJ	.	.	.	.	.	.	.
8BB-/	_	.	.	8g/	.	8dd\	.	.	.	.	8.gg\J	.	.	.	.	.	.	.
8C/	.	.	.	8g/	.	8b-\	.	.	.	.	.	.	.	.	.	.	.	.
.	.	.	.	.	.	.	.	.	.	.	32ff\LLL	.	.	.	.	.	.	.
.	x	.	.	.	.	.	.	.	.	.	32gg\JJJ	.	.	.	.	.	.	.
8C/J	.	.	.	8g/J	.	8b-\J	.	.	.	.	32aa\LLL	-mi-	.	.	.	.	.	.
.	.	.	.	.	.	.	.	.	.	.	32gg\JJJ	.	.	.	.	.	.	.
.	.	.	.	.	.	.	.	.	.	.	32ff\LLL	-ne	.	.	.	.	.	.
.	.	.	.	.	.	.	.	.	.	.	32ee\JJJ	.	.	.	.	.	.	.
!	!	!	!	!	!	!	!	!	!	!	!LO:LB:g=original	!	!	!	!	!	!	!
=29	=29	=29	=29	=29	=29	=29	=29	=29	=29	=29	=29	=29	=29	=29	=29	=29	=29	=29
!LO:TX:t=P:problem=mixed beam	!	!	!	!	!LO:DY:a	!	!	!	!	!	!	!	!	!	!	!	!	!
16F\LL	.	2ryy	.	8a\L	f	8a\L	.	2ryy	2ryy	2ryy	16ff\	Do-	2ryy	2ryy	8r	.	8r	.
16FF/	.	.	.	.	.	.	.	.	.	.	16cc\	-mi-	.	.	.	.	.	.
!	!	!	!	!	!	!	!	!	!	!	!	!	!	!	!	!LO:DY:a	!	!LO:DY:rj:a
16AA/	.	.	.	8ff\ 8cc\ 8f\	.	8ff\ 8cc\ 8f\	.	.	.	.	8cc\	-ni	.	.	8a/L	f	8ff\	f
16C/JJ	.	.	.	.	.	.	.	.	.	.	.	.	.	.	.	.	.	.
!LO:TX:t=P:problem=mixed beam	!	!	!	!	!	!	!	!	!	!	!	!	!	!	!	!	!	!
8F\L	.	.	.	8ff\J 8cc\ 8f\	.	8ff\J 8cc\ 8f\	.	.	.	.	4r	.	.	.	8a/J	.	8ff\	.
!	!	!LO:TX:b:t=Verte	!	!	!	!	!	!	!	!	!	!	!	!	!	!	!	!
8FF/J	.	.	.	8r	.	8r	.	.	.	.	.	.	.	.	8r	.	8r	.
!LO:PB:g=original	!	!	!	!LO:LB:g=original	!	!	!	!	!	!	!	!	!	!	!LO:LB:g=original	!	!	!
=30	=30	=30	=30	=30	=30	=30	=30	=30	=30	=30	=30	=30	=30	=30	=30	=30	=30	=30
8r	.	2ryy	.	8r	.	4aa\	.	2ryy	2ryy	2ryy	4aa\	Be-	2ryy	2ryy	0r	.	0r	.
!	!	!	!	!	!LO:DY:a	!	!	!	!	!	!	!	!	!	!	!	!	!
8F\L	6	.	.	8a/L	p	.	.	.	.	.	.	.	.	.	.	.	.	.
8F\	.	.	.	8a/	.	(16gg\LL	.	.	.	.	16gg\LL	.	.	.	.	.	.	.
.	.	.	.	.	.	16ff\)	.	.	.	.	16ff\JJ	.	.	.	.	.	.	.
8F\J	.	.	.	8a/J	.	(16ee\	.	.	.	.	16ee\LL	-ne-	.	.	.	.	.	.
.	_	.	.	.	.	16dd\JJ)	.	.	.	.	16dd\JJ	.	.	.	.	.	.	.
!	!	!	!	!	!	!LO:LB:g=original	!	!	!	!	!	!	!	!	!	!	!	!
=31	=31	=31	=31	=31	=31	=31	=31	=31	=31	=31	=31	=31	=31	=31	=31	=31	=31	=31
8r	.	2ryy	.	8r	.	16cc#X\LL	.	2ryy	2ryy	2ryy	16cc#X\LL	-di-	2ryy	2ryy	.	.	.	.
.	.	.	.	.	.	(16dd\	.	.	.	.	16dd\	.	.	.	.	.	.	.
8F\L	.	.	.	8a/L	.	16ee\	.	.	.	.	16ee\	.	.	.	.	.	.	.
.	.	.	.	.	.	16dd\JJ)	.	.	.	.	16dd\JJ	.	.	.	.	.	.	.
8F\	.	.	.	8a/	.	8dd\	.	.	.	.	8dd\	-ctus	.	.	.	.	.	.
8F\J	x	.	.	8a/J	.	8r	.	.	.	.	8r	.	.	.	.	.	.	.
=32	=32	=32	=32	=32	=32	=32	=32	=32	=32	=32	=32	=32	=32	=32	=32	=32	=32	=32
8r	.	2ryy	.	8r	.	4gg\	.	2ryy	2ryy	2ryy	4gg\	Be-	2ryy	2ryy	.	.	.	.
8E\L	6	.	.	8g/L	.	.	.	.	.	.	.	.	.	.	.	.	.	.
8E\	.	.	.	8g/	.	(16ff\LL	.	.	.	.	16ff\LL	.	.	.	.	.	.	.
.	.	.	.	.	.	16ee\)	.	.	.	.	16ee\JJ	.	.	.	.	.	.	.
8E\J	_	.	.	8g/J	.	(16dd\	.	.	.	.	16dd\LL	-ne-	.	.	.	.	.	.
.	.	.	.	.	.	16ccn\JJ)	.	.	.	.	16ccn\JJ	.	.	.	.	.	.	.
=33	=33	=33	=33	=33	=33	=33	=33	=33	=33	=33	=33	=33	=33	=33	=33	=33	=33	=33
8r	.	2ryy	.	8r	.	(16bn\LL	.	2ryy	2ryy	2ryy	16bn\LL	-dic-	2ryy	2ryy	.	.	.	.
.	.	.	.	.	.	16cc\	.	.	.	.	16cc\	.	.	.	.	.	.	.
8E\L	.	.	.	8g/L	.	16dd\)	.	.	.	.	16dd\	.	.	.	.	.	.	.
.	.	.	.	.	.	16cc\JJ	.	.	.	.	16cc\JJ	.	.	.	.	.	.	.
!	!	!	!	!	!	!	!	!	!	!	!LO:LB:g=original	!	!	!	!	!	!	!
8E\	.	.	.	8g/	.	8cc\	.	.	.	.	8cc\	-tus	.	.	.	.	.	.
8E\J	x	.	.	8g/J	.	16r	.	.	.	.	16r	.	.	.	.	.	.	.
.	.	.	.	.	.	16cc\	.	.	.	.	16cc\	qui	.	.	.	.	.	.
=34	=34	=34	=34	=34	=34	=34	=34	=34	=34	=34	=34	=34	=34	=34	=34	=34	=34	=34
8r	.	2ryy	.	8r	.	(8.gg\L	.	2ryy	2ryy	2ryy	8.gg\L	ve-	2ryy	2ryy	1r	.	1r	.
8BBn/L	6 5	.	.	8g/L	.	.	.	.	.	.	.	.	.	.	.	.	.	.
.	.	.	.	.	.	16qqff/LL	.	.	.	.	.	.	.	.	.	.	.	.
.	.	.	.	.	.	16qqee/JJ	.	.	.	.	.	.	.	.	.	.	.	.
.	.	.	.	.	.	16ff\Jk)	.	.	.	.	16ff\Jk	.	.	.	.	.	.	.
8BB/	_ _	.	.	8g/	.	8dd\	.	.	.	.	8dd\	-nit	.	.	.	.	.	.
8BB/J	.	.	.	8g/J	.	16r	.	.	.	.	16r	.	.	.	.	.	.	.
*	*	*	*	*	*	*	*	*	*	*	*	*ij	*	*	*	*	*	*
.	x	.	.	.	.	16dd\	.	.	.	.	16dd\	qui	.	.	.	.	.	.
=35	=35	=35	=35	=35	=35	=35	=35	=35	=35	=35	=35	=35	=35	=35	=35	=35	=35	=35
8r	.	2ryy	.	8r	.	(8.gg\L	.	2ryy	2ryy	2ryy	8.gg\L	ve-	2ryy	2ryy	.	.	.	.
8C/L	.	.	.	8g/L	.	.	.	.	.	.	.	.	.	.	.	.	.	.
.	.	.	.	.	.	16qqff/LL	.	.	.	.	.	.	.	.	.	.	.	.
.	.	.	.	.	.	16qqee/JJ	.	.	.	.	.	.	.	.	.	.	.	.
.	.	.	.	.	.	16ff\Jk)	.	.	.	.	16ff\Jk	.	.	.	.	.	.	.
8C/	.	.	.	8g/	.	8ee\	.	.	.	.	8ee\	-nit	.	.	.	.	.	.
!	!	!	!	!	!	!LO:LB:g=original	!	!	!	!	!	!	!	!	!	!	!	!
*	*	*	*	*	*	*	*	*	*	*	*	*Xij	*	*	*	*	*	*
8C/J	.	.	.	8g/J	.	16r	.	.	.	.	16r	.	.	.	.	.	.	.
.	.	.	.	.	.	16ee\	.	.	.	.	16ee\	in	.	.	.	.	.	.
!	!	!	!	!	!	!	!	!	!	!	!	!	!	!	!	!	!LO:LB:g=original	!
=36	=36	=36	=36	=36	=36	=36	=36	=36	=36	=36	=36	=36	=36	=36	=36	=36	=36	=36
!LO:TX:t=P:problem=mixed beam	!	!	!	!	!	!	!	!	!	!	!	!	!	!	!	!	!	!
8F\L	6	2ryy	.	8a/L	.	16ee\LL	.	2ryy	2ryy	2ryy	16ee\LL	no-	2ryy	2ryy	8r	.	8r	.
.	.	.	.	.	.	16dd\	.	.	.	.	16dd\JJ	.	.	.	.	.	.	.
!	!	!	!	!	!	!	!	!	!	!	!	!	!	!	!	!LO:DY:a	!	!LO:DY:a
8F\	.	.	.	16a/L	.	16ff\	.	.	.	.	16ff\	-mi-	.	.	8dd\L	p	8ff\L	p
.	.	.	.	16f/JJ	.	16dd\JJ	.	.	.	.	16dd\	-ne	.	.	.	.	.	.
!	!	!	!	!LO:LB:g=original	!	!	!	!	!	!	!	!	!	!	!	!	!	!
8G\	4	.	.	8e/L	.	8cc\L	.	.	.	.	16dd\LL	Do-	.	.	8cc\	.	8ee\	.
.	.	.	.	.	.	.	.	.	.	.	16cc\JJ	.	.	.	.	.	.	.
8GG/J	n	.	.	8d/J	.	8bn\J	.	.	.	.	16cc\LL	-mi-	.	.	8bn\J	.	8dd\J	.
.	.	.	.	.	.	.	.	.	.	.	16bn\JJ	.	.	.	.	.	.	.
!LO:LB:g=original	!	!	!	!	!	!	!	!	!	!	!LO:LB:g=original	!	!	!	!	!	!	!
=37	=37	=37	=37	=37	=37	=37	=37	=37	=37	=37	=37	=37	=37	=37	=37	=37	=37	=37
4C/	.	32e/LLL	.	4e/	.	4cc\	.	2ryy	2ryy	2ryy	4cc\	-ni	2ryy	2ryy	4cc\	.	4ee\	.
.	.	(32c/	.	.	.	.	.	.	.	.	.	.	.	.	.	.	.	.
.	.	32e/	.	.	.	.	.	.	.	.	.	.	.	.	.	.	.	.
.	.	32g/JJJ)	.	.	.	.	.	.	.	.	.	.	.	.	.	.	.	.
.	.	(32cc\LLL	.	.	.	.	.	.	.	.	.	.	.	.	.	.	.	.
.	.	32g\	.	.	.	.	.	.	.	.	.	.	.	.	.	.	.	.
.	.	32cc\	.	.	.	.	.	.	.	.	.	.	.	.	.	.	.	.
.	.	32ee\JJJ)	.	.	.	.	.	.	.	.	.	.	.	.	.	.	.	.
8r	.	(32gg\LLL	.	4r	.	4r	.	.	.	.	4r	.	.	.	4r	.	4r	.
.	.	32ee\	.	.	.	.	.	.	.	.	.	.	.	.	.	.	.	.
.	.	32aa\)	.	.	.	.	.	.	.	.	.	.	.	.	.	.	.	.
.	.	32gg\JJJ	.	.	.	.	.	.	.	.	.	.	.	.	.	.	.	.
8E\	3	(32ff\LLL	.	.	.	.	.	.	.	.	.	.	.	.	.	.	.	.
.	.	32ee\	.	.	.	.	.	.	.	.	.	.	.	.	.	.	.	.
.	.	32dd\	.	.	.	.	.	.	.	.	.	.	.	.	.	.	.	.
.	.	32cc\JJJ)	.	.	.	.	.	.	.	.	.	.	.	.	.	.	.	.
=38	=38	=38	=38	=38	=38	=38	=38	=38	=38	=38	=38	=38	=38	=38	=38	=38	=38	=38
!LO:TX:t=P:problem=mixed beam	!	!	!	!	!	!	!	!	!	!	!	!	!	!	!	!	!	!
8G\L	.	(32cc\LLL	.	8r	.	8r	.	2ryy	2ryy	2ryy	8r	.	2ryy	2ryy	0r	.	0r	.
.	.	32bn\	.	.	.	.	.	.	.	.	.	.	.	.	.	.	.	.
.	.	32dd\)	.	.	.	.	.	.	.	.	.	.	.	.	.	.	.	.
.	.	32cc\JJ	.	.	.	.	.	.	.	.	.	.	.	.	.	.	.	.
!	!	!LO:TX:a:t=|	!	!	!	!	!	!	!	!	!	!	!	!	!	!	!	!
8GG/	.	8b\J	.	8Bn/L	.	8d/	.	.	.	.	8bn\	qui	.	.	.	.	.	.
8BBn/	.	4r	.	8d/	.	32d/LLL	.	.	.	.	32b\LLL	ve-	.	.	.	.	.	.
.	.	.	.	.	.	(32f/	.	.	.	.	32dd\	.	.	.	.	.	.	.
.	.	.	.	.	.	32e/	.	.	.	.	32cc\	.	.	.	.	.	.	.
.	.	.	.	.	.	32f/JJJ)	.	.	.	.	32dd\JJJ	.	.	.	.	.	.	.
8GG/J	.	.	.	8B/J	.	32g/LLL	.	.	.	.	32ee\LLL	.	.	.	.	.	.	.
.	.	.	.	.	.	32f/	.	.	.	.	32dd\	.	.	.	.	.	.	.
.	.	.	.	.	.	(32e/	.	.	.	.	32cc\	.	.	.	.	.	.	.
.	.	.	.	.	.	32d/JJJ)	.	.	.	.	32b\JJJ	.	.	.	.	.	.	.
=39	=39	=39	=39	=39	=39	=39	=39	=39	=39	=39	=39	=39	=39	=39	=39	=39	=39	=39
4C/	.	(32e/LLL	.	4G/	.	4e/	.	2ryy	2ryy	2ryy	4cc\	-nit	2ryy	2ryy	.	.	.	.
.	.	32c/	.	.	.	.	.	.	.	.	.	.	.	.	.	.	.	.
.	.	32e/	.	.	.	.	.	.	.	.	.	.	.	.	.	.	.	.
.	.	32g/JJJ)	.	.	.	.	.	.	.	.	.	.	.	.	.	.	.	.
.	.	(32cc\LLL	.	.	.	.	.	.	.	.	.	.	.	.	.	.	.	.
.	.	32g\	.	.	.	.	.	.	.	.	.	.	.	.	.	.	.	.
.	.	32cc\	.	.	.	.	.	.	.	.	.	.	.	.	.	.	.	.
.	.	32ee\JJJ)	.	.	.	.	.	.	.	.	.	.	.	.	.	.	.	.
8r	.	(32gg\LLL	.	4r	.	4r	.	.	.	.	4r	.	.	.	.	.	.	.
.	.	32ee\	.	.	.	.	.	.	.	.	.	.	.	.	.	.	.	.
.	.	32aa\	.	.	.	.	.	.	.	.	.	.	.	.	.	.	.	.
.	.	32gg\JJJ)	.	.	.	.	.	.	.	.	.	.	.	.	.	.	.	.
8E\	3	(32ff\LLL	.	.	.	.	.	.	.	.	.	.	.	.	.	.	.	.
.	.	32ee\	.	.	.	.	.	.	.	.	.	.	.	.	.	.	.	.
.	.	32dd\	.	.	.	.	.	.	.	.	.	.	.	.	.	.	.	.
.	.	32cc\JJJ)	.	.	.	.	.	.	.	.	.	.	.	.	.	.	.	.
!LO:LB:g=original	!	!	!	!	!	!	!	!	!	!	!	!	!	!	!	!	!	!
=40	=40	=40	=40	=40	=40	=40	=40	=40	=40	=40	=40	=40	=40	=40	=40	=40	=40	=40
!LO:TX:t=P:problem=mixed beam	!	!	!	!	!	!	!	!	!	!	!	!	!	!	!	!	!	!
8G\L	.	(32cc\LLL	.	8r	.	8r	.	2ryy	2ryy	2ryy	8r	.	2ryy	2ryy	.	.	.	.
.	.	32bn\	.	.	.	.	.	.	.	.	.	.	.	.	.	.	.	.
.	.	32dd\)	.	.	.	.	.	.	.	.	.	.	.	.	.	.	.	.
.	.	32cc\JJ	.	.	.	.	.	.	.	.	.	.	.	.	.	.	.	.
!	!	!LO:TX:a:t=|	!	!	!	!	!	!	!	!	!	!	!	!	!	!	!	!
8GG/	.	8b\J	.	8Bn/L	.	8d/	.	.	.	.	8bn\	qui	.	.	.	.	.	.
8BBn/	.	4r	.	8d/	.	32d/LLL	.	.	.	.	32b\LLL	ve-	.	.	.	.	.	.
.	.	.	.	.	.	(32f/	.	.	.	.	32dd\	.	.	.	.	.	.	.
.	.	.	.	.	.	32e/	.	.	.	.	32cc\	.	.	.	.	.	.	.
.	.	.	.	.	.	32f/JJJ)	.	.	.	.	32dd\JJJ	.	.	.	.	.	.	.
8GG/J	.	.	.	8B/J	.	32g/LLL	.	.	.	.	32ee\LLL	.	.	.	.	.	.	.
.	.	.	.	.	.	(32f/	.	.	.	.	32dd\	.	.	.	.	.	.	.
.	.	.	.	.	.	32e/	.	.	.	.	32cc\	.	.	.	.	.	.	.
.	.	.	.	.	.	32d/JJJ)	.	.	.	.	32b\JJJ	.	.	.	.	.	.	.
!	!	!	!	!	!	!LO:LB:g=original	!	!	!	!	!LO:LB:g=original	!	!	!	!	!	!	!
=41	=41	=41	=41	=41	=41	=41	=41	=41	=41	=41	=41	=41	=41	=41	=41	=41	=41	=41
8C\L	6	2ryy	.	8G/L	.	8e/L	.	2ryy	2ryy	2ryy	16dd\LL	.	2ryy	2ryy	.	.	.	.
.	_	.	.	.	.	.	.	.	.	.	16cc\JJ	.	.	.	.	.	.	.
8E\	.	.	.	8G/	.	8e/J	.	.	.	.	8cc\	-nit	.	.	.	.	.	.
8E\	.	.	.	8g/	.	16r	.	.	.	.	16r	.	.	.	.	.	.	.
.	.	.	.	.	.	(16cc\LL	.	.	.	.	16cc\	qui	.	.	.	.	.	.
8E\J	5-	.	.	8g/J	.	16bn\	.	.	.	.	16bn\LL	ve-	.	.	.	.	.	.
.	.	.	.	.	.	16b-X\JJ)	.	.	.	.	16b-X\JJ	.	.	.	.	.	.	.
=42	=42	=42	=42	=42	=42	=42	=42	=42	=42	=42	=42	=42	=42	=42	=42	=42	=42	=42
8F\L	3_	2ryy	.	8c/L	.	(16b-/LL	.	2ryy	2ryy	2ryy	16b-\LL	.	2ryy	2ryy	1r	.	1r	.
.	.	.	.	.	.	16a/J	.	.	.	.	16a\J	.	.	.	.	.	.	.
8F\	.	.	.	8c/	.	(8.a/J)	.	.	.	.	8.a\J	.	.	.	.	.	.	.
8F\	x	.	.	8A/	.	.	.	.	.	.	.	.	.	.	.	.	.	.
.	.	.	.	.	.	16cc\LL)	.	.	.	.	16cc\LL	.	.	.	.	.	.	.
8F\J	4n 2	.	.	8G/J	.	(16bn\	.	.	.	.	16bn\	.	.	.	.	.	.	.
.	.	.	.	.	.	16dd\JJ)	.	.	.	.	16dd\JJ	.	.	.	.	.	.	.
=43	=43	=43	=43	=43	=43	=43	=43	=43	=43	=43	=43	=43	=43	=43	=43	=43	=43	=43
8E\L	6_	2ryy	.	8G/L	.	(16dd\LL	.	2ryy	2ryy	2ryy	16dd\LL	.	2ryy	2ryy	.	.	.	.
.	.	.	.	.	.	16cc\J)	.	.	.	.	16cc\JJ	.	.	.	.	.	.	.
!	!	!	!	!	!	!LO:TX:a:t=|	!	!	!	!	!	!	!	!	!	!	!	!
8E\	.	.	.	8G/J	.	8cc\J	.	.	.	.	8cc\	-nit	.	.	.	.	.	.
!	!	!	!	!LO:LB:g=original	!	!	!	!	!	!	!	!	!	!	!	!	!	!
8E\	x	.	.	8g/L	.	16r	.	.	.	.	16r	.	.	.	.	.	.	.
.	.	.	.	.	.	(16cc\LL	.	.	.	.	16cc\	in	.	.	.	.	.	.
8E\J	5-	.	.	8g/J	.	16bn\	.	.	.	.	16bn\LL	no-	.	.	.	.	.	.
.	.	.	.	.	.	16b-X\JJ)	.	.	.	.	16b-X\JJ	.	.	.	.	.	.	.
=44	=44	=44	=44	=44	=44	=44	=44	=44	=44	=44	=44	=44	=44	=44	=44	=44	=44	=44
8F\L	6 3	2ryy	.	8f/L	.	(32a\LLL	.	2ryy	2ryy	2ryy	32a\LLL	.	2ryy	2ryy	8r	.	8r	.
.	.	.	.	.	.	32cc#X\	.	.	.	.	32cc#X\	.	.	.	.	.	.	.
.	.	.	.	.	.	32dd\	.	.	.	.	32dd\	.	.	.	.	.	.	.
.	.	.	.	.	.	32ee\JJJ)	.	.	.	.	32ee\JJJ	.	.	.	.	.	.	.
!	!	!	!	!	!	!	!	!	!	!	!LO:LB:g=original	!	!	!	!	!	!	!
.	.	.	.	.	.	8qgg/	.	.	.	.	8qgg/	.	.	.	.	.	.	.
8F\	.	.	.	16a/L	.	16ff\LL	.	.	.	.	16ff\	-mi-	.	.	8dd\L	.	8ff\L	.
.	.	.	.	16f/JJ	.	(32ee\L	.	.	.	.	32ee\LLL	-ne	.	.	.	.	.	.
.	.	.	.	.	.	32dd\JJJ	.	.	.	.	32dd\JJJ	.	.	.	.	.	.	.
8G\	4	.	.	8e/L	.	8ccn\L)	.	.	.	.	8cc#\	do-	.	.	8cc\	.	8ee\	.
8G\J	n	.	.	8d/J	.	8bn\J	.	.	.	.	8bn\	-mi-	.	.	8bn\J	.	8dd\J	.
!	!	!	!	!	!	!LO:LB:g=original	!	!	!	!	!	!	!	!	!	!	!	!
=45	=45	=45	=45	=45	=45	=45	=45	=45	=45	=45	=45	=45	=45	=45	=45	=45	=45	=45
16c>\LL	.	(<16cc/LL	.	8c/	.	8cc/ 8e/	.	2ryy	2ryy	2ryy	4cc\	-ni	2ryy	2ryy	4cc\	.	4ee\	.
16g>\	.	16ee/JJ)	.	.	.	.	.	.	.	.	.	.	.	.	.	.	.	.
16e>\	.	4ggW/	.	8r	.	8r	.	.	.	.	.	.	.	.	.	.	.	.
16g>\JJ	.	.	.	.	.	.	.	.	.	.	.	.	.	.	.	.	.	.
16c>\LL	.	.	.	8c/	.	8e/	.	.	.	.	4r	.	.	.	4r	.	4r	.
16g>\	.	.	.	.	.	.	.	.	.	.	.	.	.	.	.	.	.	.
16e>\	.	(<32aa/LLL	.	8r	.	8r	.	.	.	.	.	.	.	.	.	.	.	.
.	.	32gg/	.	.	.	.	.	.	.	.	.	.	.	.	.	.	.	.
16g>\JJ	.	32ff/)	.	.	.	.	.	.	.	.	.	.	.	.	.	.	.	.
.	.	32ee/JJJ	.	.	.	.	.	.	.	.	.	.	.	.	.	.	.	.
!LO:LB:g=original	!	!	!	!	!	!	!	!	!	!	!	!	!	!	!	!	!	!
=46	=46	=46	=46	=46	=46	=46	=46	=46	=46	=46	=46	=46	=46	=46	=46	=46	=46	=46
!	!	!	!	!	!	!	!	!	!	!	!LO:TX:b:t=20.	!	!	!	!	!	!	!
16Bn\LL	.	16ee/LL	.	8d/ 8G/	.	8f/	.	2ryy	2ryy	2ryy	0r	.	2ryy	2ryy	0r	.	0r	.
16g>\	.	16dd/J	.	.	.	.	.	.	.	.	.	.	.	.	.	.	.	.
16d>\	.	8dd/J	.	8r	.	8r	.	.	.	.	.	.	.	.	.	.	.	.
16g>\JJ	.	.	.	.	.	.	.	.	.	.	.	.	.	.	.	.	.	.
16B\LL	.	16r	.	8d/ 8G/	.	8f/	.	.	.	.	.	.	.	.	.	.	.	.
16g>\	.	16dd/	.	.	.	.	.	.	.	.	.	.	.	.	.	.	.	.
16d>\	.	(<32dd/LLL	.	8r	.	8r	.	.	.	.	.	.	.	.	.	.	.	.
.	.	32cc/	.	.	.	.	.	.	.	.	.	.	.	.	.	.	.	.
16g>\JJ	.	32dd/)	.	.	.	.	.	.	.	.	.	.	.	.	.	.	.	.
.	.	32ee/JJJ	.	.	.	.	.	.	.	.	.	.	.	.	.	.	.	.
=47	=47	=47	=47	=47	=47	=47	=47	=47	=47	=47	=47	=47	=47	=47	=47	=47	=47	=47
16Bn\LL	.	(16ff/LL	.	8d/ 8G/	.	8f/	.	2ryy	2ryy	2ryy	.	.	2ryy	2ryy	.	.	.	.
16g>\	.	16dd/J)	.	.	.	.	.	.	.	.	.	.	.	.	.	.	.	.
16d>\	.	8.dd/J	.	8r	.	8r	.	.	.	.	.	.	.	.	.	.	.	.
16g>\JJ	.	.	.	.	.	.	.	.	.	.	.	.	.	.	.	.	.	.
16B\LL	.	.	.	8d/ 8G/	.	8f/	.	.	.	.	.	.	.	.	.	.	.	.
16g>\	.	(32ee/LLL	.	.	.	.	.	.	.	.	.	.	.	.	.	.	.	.
.	.	32ff/JJJ)	.	.	.	.	.	.	.	.	.	.	.	.	.	.	.	.
16d>\	.	(32gg/LLL	.	8r	.	8r	.	.	.	.	.	.	.	.	.	.	.	.
.	.	32aa/	.	.	.	.	.	.	.	.	.	.	.	.	.	.	.	.
16g>\JJ	.	32gg/	.	.	.	.	.	.	.	.	.	.	.	.	.	.	.	.
.	.	32ff/JJJ)	.	.	.	.	.	.	.	.	.	.	.	.	.	.	.	.
=48	=48	=48	=48	=48	=48	=48	=48	=48	=48	=48	=48	=48	=48	=48	=48	=48	=48	=48
16c\LL	.	32ff/LLL	.	8c/	.	8e/	.	2ryy	2ryy	2ryy	.	.	2ryy	2ryy	.	.	.	.
.	.	(32ee/	.	.	.	.	.	.	.	.	.	.	.	.	.	.	.	.
16g>\	.	32dd/	.	.	.	.	.	.	.	.	.	.	.	.	.	.	.	.
.	.	32ee/JJ)	.	.	.	.	.	.	.	.	.	.	.	.	.	.	.	.
16e>\	.	8ee/J	.	8r	.	8r	.	.	.	.	.	.	.	.	.	.	.	.
16g>\JJ	.	.	.	.	.	.	.	.	.	.	.	.	.	.	.	.	.	.
8c\	.	32gg\LLL	.	8c/	.	8e/	.	.	.	.	.	.	.	.	.	.	.	.
.	.	32ee\	.	.	.	.	.	.	.	.	.	.	.	.	.	.	.	.
.	.	(32ccc\	.	.	.	.	.	.	.	.	.	.	.	.	.	.	.	.
.	.	32gg\JJJ)	.	.	.	.	.	.	.	.	.	.	.	.	.	.	.	.
8r	.	(32ff\LLL	.	8r	.	8r	.	.	.	.	.	.	.	.	.	.	.	.
.	.	32ee\)	.	.	.	.	.	.	.	.	.	.	.	.	.	.	.	.
.	.	(32dd\	.	.	.	.	.	.	.	.	.	.	.	.	.	.	.	.
.	.	32cc\JJJ)	.	.	.	.	.	.	.	.	.	.	.	.	.	.	.	.
!	!	!	!	!LO:LB:g=original	!	!	!	!	!	!	!	!	!	!	!	!	!	!
=49	=49	=49	=49	=49	=49	=49	=49	=49	=49	=49	=49	=49	=49	=49	=49	=49	=49	=49
8F\L	3_	(32ee\LLL	.	8d/L	.	8a/L	.	2ryy	2ryy	2ryy	.	.	2ryy	2ryy	.	.	.	.
.	.	32dd\	.	.	.	.	.	.	.	.	.	.	.	.	.	.	.	.
.	.	32cc\	.	.	.	.	.	.	.	.	.	.	.	.	.	.	.	.
.	.	32dd\JJ)	.	.	.	.	.	.	.	.	.	.	.	.	.	.	.	.
!	!	!LO:TX:a:t=|	!	!	!	!	!	!	!	!	!	!	!	!	!	!	!	!
8F\J	.	8dd\J	.	8d/	.	8a/	.	.	.	.	.	.	.	.	.	.	.	.
!LO:LB:g=original	!	!	!	!	!	!	!	!	!	!	!	!	!	!	!	!	!	!
8G\L	x	(32ff\LLL	.	8d/	.	8bn/	.	.	.	.	.	.	.	.	.	.	.	.
.	.	32dd\)	.	.	.	.	.	.	.	.	.	.	.	.	.	.	.	.
.	.	(32gg\	.	.	.	.	.	.	.	.	.	.	.	.	.	.	.	.
.	.	32ff\JJJ)	.	.	.	.	.	.	.	.	.	.	.	.	.	.	.	.
8G\J	.	(32ee\LLL	.	8d/J	.	8b/J	.	.	.	.	.	.	.	.	.	.	.	.
.	.	32dd\)	.	.	.	.	.	.	.	.	.	.	.	.	.	.	.	.
.	.	(32cc\	.	.	.	.	.	.	.	.	.	.	.	.	.	.	.	.
.	.	32bn\JJJ)	.	.	.	.	.	.	.	.	.	.	.	.	.	.	.	.
=50	=50	=50	=50	=50	=50	=50	=50	=50	=50	=50	=50	=50	=50	=50	=50	=50	=50	=50
8A\L	.	(32dd\LLL	.	8c/L	.	8e/L	.	2ryy	2ryy	2ryy	0r	.	2ryy	2ryy	1r	.	1r	.
.	.	32cc\	.	.	.	.	.	.	.	.	.	.	.	.	.	.	.	.
.	.	32bn\	.	.	.	.	.	.	.	.	.	.	.	.	.	.	.	.
.	.	32cc\JJ)	.	.	.	.	.	.	.	.	.	.	.	.	.	.	.	.
!	!	!LO:TX:a:t=|	!	!	!	!	!	!	!	!	!	!	!	!	!	!	!	!
8A\	.	8cc\J	.	8c/	.	8e/	.	.	.	.	.	.	.	.	.	.	.	.
8E\	3	32cc\LLL	.	8c/	.	8g/	.	.	.	.	.	.	.	.	.	.	.	.
.	_	(32bn\	.	.	.	.	.	.	.	.	.	.	.	.	.	.	.	.
.	.	32dd\	.	.	.	.	.	.	.	.	.	.	.	.	.	.	.	.
.	.	32cc\JJJ)	.	.	.	.	.	.	.	.	.	.	.	.	.	.	.	.
8E\J	.	(32b/LLL	.	8c/J	.	8g/J	.	.	.	.	.	.	.	.	.	.	.	.
.	x	32b-X/	.	.	.	.	.	.	.	.	.	.	.	.	.	.	.	.
.	.	32a/	.	.	.	.	.	.	.	.	.	.	.	.	.	.	.	.
.	.	32g/JJJ)	.	.	.	.	.	.	.	.	.	.	.	.	.	.	.	.
!	!	!	!	!	!	!LO:LB:g=original	!	!	!	!	!	!	!	!	!	!	!	!
=51	=51	=51	=51	=51	=51	=51	=51	=51	=51	=51	=51	=51	=51	=51	=51	=51	=51	=51
8F\L	3	(32g#X/LLL	.	8A/L	.	8f/L	.	2ryy	2ryy	2ryy	.	.	2ryy	2ryy	.	.	.	.
.	.	32a/	.	.	.	.	.	.	.	.	.	.	.	.	.	.	.	.
.	_	32g#/	.	.	.	.	.	.	.	.	.	.	.	.	.	.	.	.
.	.	32a/JJJ)	.	.	.	.	.	.	.	.	.	.	.	.	.	.	.	.
8F\	.	(32b-X\LLL	.	8A/	.	8f/	.	.	.	.	.	.	.	.	.	.	.	.
.	.	32bn\	.	.	.	.	.	.	.	.	.	.	.	.	.	.	.	.
.	.	32cc\	.	.	.	.	.	.	.	.	.	.	.	.	.	.	.	.
.	.	32cc#X\JJJ)	.	.	.	.	.	.	.	.	.	.	.	.	.	.	.	.
8F\	.	(32dd\LLL	.	8A/	.	8e/	.	.	.	.	.	.	.	.	.	.	.	.
.	.	32cc#\	.	.	.	.	.	.	.	.	.	.	.	.	.	.	.	.
.	.	32dd\	.	.	.	.	.	.	.	.	.	.	.	.	.	.	.	.
.	.	32ee\JJJ)	.	.	.	.	.	.	.	.	.	.	.	.	.	.	.	.
8F#X\J	.	(32dd\LLL	.	8A/J	.	8e/J	.	.	.	.	.	.	.	.	.	.	.	.
.	x	32ccn\	.	.	.	.	.	.	.	.	.	.	.	.	.	.	.	.
.	.	32bn\)	.	.	.	.	.	.	.	.	.	.	.	.	.	.	.	.
.	.	32cc\JJJ	.	.	.	.	.	.	.	.	.	.	.	.	.	.	.	.
!LO:LB:g=original	!	!	!	!	!	!	!	!	!	!	!	!	!	!	!	!	!	!
=52	=52	=52	=52	=52	=52	=52	=52	=52	=52	=52	=52	=52	=52	=52	=52	=52	=52	=52
!LO:TX:t=P:problem=mixed beam	!	!	!	!	!	!	!	!	!	!	!	!	!	!	!	!	!	!
.	.	8qdd/	.	.	.	8qf/	.	.	.	.	.	.	.	.	.	.	.	.
8G\L	.	16cc\LL	.	8G/L	.	16e/LL	.	2ryy	2ryy	2ryy	.	.	2ryy	2ryy	4r	.	4r	f
.	.	32bn\L	.	.	.	32d/L	.	.	.	.	.	.	.	.	.	.	.	.
.	.	32cc\JJ	.	.	.	32e/JJ	.	.	.	.	.	.	.	.	.	.	.	.
8GG/J	.	8b\J	.	8G/J	.	8d/J	.	.	.	.	.	.	.	.	.	.	.	.
!	!	!	!	!	!	!	!	!	!	!	!	!	!	!	!	!LO:DY:a	!	!
8G\L	n	4r	.	16r	.	16r	.	.	.	.	.	.	.	.	4g/	f	4g/	.
!	!	!	!	!LO:TX:b:t=|	!	!LO:TX:a:t=|	!	!	!	!	!	!	!	!	!	!	!	!
!	!	!	!	!LO:TX:a:t=dol"&colon;	!	!LO:TX:a:t=dolce&colon;	!	!	!	!	!	!	!	!	!	!	!	!
.	_	.	.	16Bn/LL	.	16bn\LL	.	.	.	.	.	.	.	.	.	.	.	.
!	!	!	!	!LO:TX:b:t=|	!	!LO:TX:a:t=|	!	!	!	!	!	!	!	!	!	!	!	!
8Fn\J	.	.	.	16B/	.	16b\	.	.	.	.	.	.	.	.	.	.	.	.
!	!	!	!	!LO:TX:b:t=|	!	!LO:TX:a:t=|	!	!	!	!	!	!	!	!	!	!	!	!
.	x	.	.	16B/JJ	.	16b\JJ	.	.	.	.	.	.	.	.	.	.	.	.
=53	=53	=53	=53	=53	=53	=53	=53	=53	=53	=53	=53	=53	=53	=53	=53	=53	=53	=53
8E\L	6	2ryy	.	(32c/LLL	.	(32cc\LLL	.	2ryy	2ryy	2ryy	.	.	2ryy	2ryy	2g/	.	2g/	.
.	_	.	.	32B-/	.	32bn\	.	.	.	.	.	.	.	.	.	.	.	.
.	.	.	.	32c/)	.	32cc\)	.	.	.	.	.	.	.	.	.	.	.	.
.	.	.	.	32d/JJ	.	32dd\JJ	.	.	.	.	.	.	.	.	.	.	.	.
!	!	!	!	!LO:TX:b:t=|	!	!LO:TX:a:t=|	!	!	!	!	!	!	!	!	!	!	!	!
8G\	x	.	.	8e/J	.	8ee\J	.	.	.	.	.	.	.	.	.	.	.	.
8E\	.	.	.	16r	.	16r	.	.	.	.	.	.	.	.	.	.	.	.
!	!	!	!	!LO:TX:b:t=|	!	!LO:TX:a:t=|	!	!	!	!	!	!	!	!	!	!	!	!
.	.	.	.	16c/LL	.	16cc\LL	.	.	.	.	.	.	.	.	.	.	.	.
!	!	!	!	!LO:TX:b:t=|	!	!LO:TX:a:t=|	!	!	!	!	!	!	!	!	!	!	!	!
8C\J	.	.	.	16e/	.	16ee\	.	.	.	.	.	.	.	.	.	.	.	.
!	!	!	!	!LO:TX:b:t=|	!	!LO:TX:a:t=|	!	!	!	!	!	!	!	!	!	!	!	!
.	.	.	.	16g/JJ	.	16gg\JJ	.	.	.	.	.	.	.	.	.	.	.	.
!	!	!	!	!	!	!	!	!	!	!	!	!	!	!	!LO:LB:g=original	!	!	!
=54	=54	=54	=54	=54	=54	=54	=54	=54	=54	=54	=54	=54	=54	=54	=54	=54	=54	=54
!LO:TX:t=P:problem=mixed beam	!	!	!	!	!	!	!	!	!	!	!	!	!	!	!	!	!	!
8BBn/L	6 5	2ryy	.	(16g/LL	.	(16gg\LL	.	2ryy	2ryy	2ryy	0r	.	2ryy	2ryy	2g/	.	2g/	.
.	.	.	.	16f/J)	.	16ff\J)	.	.	.	.	.	.	.	.	.	.	.	.
!	!	!	!	!LO:TX:b:t=|	!	!LO:TX:a:t=|	!	!	!	!	!	!	!	!	!	!	!	!
8GG/	.	.	.	8d/J	.	8dd\J	.	.	.	.	.	.	.	.	.	.	.	.
!	!	!	!	!LO:LB:g=original	!	!	!	!	!	!	!	!	!	!	!	!	!	!
8G\	n_	.	.	16r	.	16r	.	.	.	.	.	.	.	.	.	.	.	.
!	!	!	!	!	!	!LO:TX:a:t=|	!	!	!	!	!	!	!	!	!	!	!	!
.	.	.	.	16Bn'/LL	.	16bn\LL	.	.	.	.	.	.	.	.	.	.	.	.
!	!	!	!	!	!	!LO:TX:a:t=|	!	!	!	!	!	!	!	!	!	!	!	!
8F\J	.	.	.	16B'/	.	16b\	.	.	.	.	.	.	.	.	.	.	.	.
!	!	!	!	!	!	!LO:TX:a:t=|	!	!	!	!	!	!	!	!	!	!	!	!
.	x	.	.	16B'/JJ	.	16b\JJ	.	.	.	.	.	.	.	.	.	.	.	.
=55	=55	=55	=55	=55	=55	=55	=55	=55	=55	=55	=55	=55	=55	=55	=55	=55	=55	=55
8E\L	6	2ryy	.	(32c/LLL	.	(32cc\LLL	.	2ryy	2ryy	2ryy	.	.	2ryy	2ryy	2g/	.	2g/	.
.	_	.	.	32B-/	.	32bn\	.	.	.	.	.	.	.	.	.	.	.	.
.	.	.	.	32c/)	.	32cc\)	.	.	.	.	.	.	.	.	.	.	.	.
.	.	.	.	32d/JJ	.	32dd\JJ	.	.	.	.	.	.	.	.	.	.	.	.
!	!	!	!	!LO:TX:b:t=|	!	!LO:TX:a:t=|	!	!	!	!	!	!	!	!	!	!	!	!
8G\	.	.	.	8e/J	.	8ee\J	.	.	.	.	.	.	.	.	.	.	.	.
!	!	!	!	!	!	!LO:LB:g=original	!	!	!	!	!	!	!	!	!	!	!	!
8E\	x	.	.	16r	.	16r	.	.	.	.	.	.	.	.	.	.	.	.
!	!	!	!	!LO:TX:b:t=|	!	!LO:TX:a:t=|	!	!	!	!	!	!	!	!	!	!	!	!
.	.	.	.	16c/LL	.	16cc\LL	.	.	.	.	.	.	.	.	.	.	.	.
!	!	!	!	!LO:TX:b:t=|	!	!LO:TX:a:t=|	!	!	!	!	!	!	!	!	!	!	!	!
8C\J	.	.	.	16e/	.	16ee\	.	.	.	.	.	.	.	.	.	.	.	.
!	!	!	!	!LO:TX:b:t=|	!	!LO:TX:a:t=|	!	!	!	!	!	!	!	!	!	!	!	!
.	.	.	.	16g/JJ	.	16gg\JJ	.	.	.	.	.	.	.	.	.	.	.	.
!	!	!	!	!	!	!	!	!	!	!	!	!	!	!	!	!	!LO:LB:g=original	!
=56	=56	=56	=56	=56	=56	=56	=56	=56	=56	=56	=56	=56	=56	=56	=56	=56	=56	=56
!LO:TX:t=P:problem=mixed beam	!	!	!	!	!	!	!	!	!	!	!	!	!	!	!	!	!	!
8BBn/L	6 5	2ryy	.	(16g/LL	.	(16gg\LL	.	2ryy	2ryy	2ryy	.	.	2ryy	2ryy	2g/	.	2g/	.
.	.	.	.	16f/J)	.	16ff\J)	.	.	.	.	.	.	.	.	.	.	.	.
!	!	!	!	!LO:TX:b:t=|	!	!LO:TX:a:t=|	!	!	!	!	!	!	!	!	!	!	!	!
8GG/	.	.	.	8d/J	.	8cc\J	.	.	.	.	.	.	.	.	.	.	.	.
8G\	n_	.	.	16r	.	16r	.	.	.	.	.	.	.	.	.	.	.	.
!	!	!	!	!LO:TX:b:t=|	!	!LO:TX:a:t=|	!	!	!	!	!	!	!	!	!	!	!	!
.	.	.	.	16Bn/LL	.	16bn\LL	.	.	.	.	.	.	.	.	.	.	.	.
!	!	!	!	!LO:TX:b:t=|	!	!LO:TX:a:t=|	!	!	!	!	!	!	!	!	!	!	!	!
8F\J	.	.	.	16B/	.	16b\	.	.	.	.	.	.	.	.	.	.	.	.
!	!	!	!	!LO:TX:b:t=|	!	!LO:TX:a:t=|	!	!	!	!	!	!	!	!	!	!	!	!
.	x	.	.	16B/JJ	.	16b\JJ	.	.	.	.	.	.	.	.	.	.	.	.
=57	=57	=57	=57	=57	=57	=57	=57	=57	=57	=57	=57	=57	=57	=57	=57	=57	=57	=57
8E\L	6	2ryy	.	(16c/LL	.	(16cc\LL	.	2ryy	2ryy	2ryy	.	.	2ryy	2ryy	2g/	.	2g/	.
.	_	.	.	16e/JJ)	.	16ee\JJ	.	.	.	.	.	.	.	.	.	.	.	.
8E\	.	.	.	4g/	.	4gg\)	.	.	.	.	.	.	.	.	.	.	.	.
8E\	.	.	.	.	.	.	.	.	.	.	.	.	.	.	.	.	.	.
8E\J	x	.	.	32f/LLL	.	32ff\LLL	.	.	.	.	.	.	.	.	.	.	.	.
.	.	.	.	(32e/	.	(32ee\	.	.	.	.	.	.	.	.	.	.	.	.
.	.	.	.	32d/	.	32dd\	.	.	.	.	.	.	.	.	.	.	.	.
.	.	.	.	32c/JJJ)	.	32cc\JJJ)	.	.	.	.	.	.	.	.	.	.	.	.
!LO:LB:g=original	!	!	!	!	!	!	!	!	!	!	!	!	!	!	!	!	!	!
=58	=58	=58	=58	=58	=58	=58	=58	=58	=58	=58	=58	=58	=58	=58	=58	=58	=58	=58
8F\L	.	2ryy	.	(16B-/LL	.	(16b-/LL	.	2ryy	2ryy	2ryy	0r	.	2ryy	2ryy	8f/L	.	8a/L	.
.	.	.	.	16A/J)	.	16a/J)	.	.	.	.	.	.	.	.	.	.	.	.
16F\L	.	.	.	8.A/J	.	8.a/J	.	.	.	.	.	.	.	.	16f/L	.	16a/L	.
16E\JJ	.	.	.	.	.	.	.	.	.	.	.	.	.	.	16e/JJ	.	16g/JJ	.
8F\L	6\ 3	.	.	.	.	.	.	.	.	.	.	.	.	.	8f/L	.	8a/L	.
.	.	.	.	32G/LLL	.	(32g/LLL	.	.	.	.	.	.	.	.	.	.	.	.
.	.	.	.	32A/JJJ	.	32a/JJJ)	.	.	.	.	.	.	.	.	.	.	.	.
8D\J	.	.	.	32c/LLL	.	(32cc\LLL	.	.	.	.	.	.	.	.	8f/J	.	8bn/J	.
.	.	.	.	(32B-/	.	32bn\	.	.	.	.	.	.	.	.	.	.	.	.
.	.	.	.	32A/)	.	32a\)	.	.	.	.	.	.	.	.	.	.	.	.
.	.	.	.	32B-/JJJ	.	32b\JJJ	.	.	.	.	.	.	.	.	.	.	.	.
!	!	!	!	!LO:LB:g=original	!	!	!	!	!	!	!	!	!	!	!	!	!	!
=59	=59	=59	=59	=59	=59	=59	=59	=59	=59	=59	=59	=59	=59	=59	=59	=59	=59	=59
!	!	!LO:TX:t=P:problem=mixed beam	!	!LO:TUP:a:problem=klamra łukowa	!	!LO:TUP:a:problem=klamra łukowa	!	!	!	!	!	!	!	!	!	!	!	!
8C\L	.	2ryy	.	24c/LL	.	24cc\LL	.	2ryy	2ryy	2ryy	.	.	2ryy	2ryy	8e/L	.	8cc\L	.
.	.	.	.	24e/	.	24ee\	.	.	.	.	.	.	.	.	.	.	.	.
.	.	.	.	24g/JJ	.	24gg\JJ	.	.	.	.	.	.	.	.	.	.	.	.
!	!	!	!	!LO:TUP:a:problem=klamra łukowa	!	!LO:TUP:a:problem=klamra łukowa	!	!	!	!	!	!	!	!	!	!	!	!
8F\	6	.	.	24a/LL	.	24ff\LL	.	.	.	.	.	.	.	.	8f/	.	8dd\	.
.	.	.	.	24g/	.	24ee\	.	.	.	.	.	.	.	.	.	.	.	.
.	.	.	.	24f/JJ	.	24dd\JJ	.	.	.	.	.	.	.	.	.	.	.	.
!	!	!	!	!	!	!LO:LB:g=original	!	!	!	!	!	!	!	!	!	!	!	!
8G\	7	.	.	8e/L	.	8cc\L	.	.	.	.	.	.	.	.	8e/	.	8cc\	.
8GG/J	n	.	.	8d/J	.	8bn\J	.	.	.	.	.	.	.	.	8d/J	.	8bn\J	.
=60	=60	=60	=60	=60	=60	=60	=60	=60	=60	=60	=60	=60	=60	=60	=60	=60	=60	=60
!	!	!	!	!	!	!LO:TX:t=P:problem=mixed beam	!LO:DY:a	!	!	!	!	!	!	!	!	!	!	!
8C\L	.	(32cc\LLL	.	8e/L	.	8cc\L	p	2ryy	2ryy	2ryy	.	.	2ryy	2ryy	4e/	.	4cc\	.
.	.	32bn\	.	.	.	.	.	.	.	.	.	.	.	.	.	.	.	.
.	.	32cc\)	.	.	.	.	.	.	.	.	.	.	.	.	.	.	.	.
.	.	32dd\JJJ	.	.	.	.	.	.	.	.	.	.	.	.	.	.	.	.
!	!	!LO:TX:a:t=|	!	!	!LO:DY:a	!	!	!	!	!	!	!	!	!	!	!	!	!
8E\	.	16cc\LL	.	8G/	p	8c/	.	.	.	.	.	.	.	.	.	.	.	.
!	!	!LO:TX:a:t=|	!	!	!	!	!	!	!	!	!	!	!	!	!	!	!	!
.	.	16cc\JJ	.	.	.	.	.	.	.	.	.	.	.	.	.	.	.	.
8E\	.	(32cc\LLL	.	8G/	.	8c/	.	.	.	.	.	.	.	.	4r	.	4r	.
.	.	32b\)	.	.	.	.	.	.	.	.	.	.	.	.	.	.	.	.
.	.	(32ee\	.	.	.	.	.	.	.	.	.	.	.	.	.	.	.	.
.	.	32dd\JJJ)	.	.	.	.	.	.	.	.	.	.	.	.	.	.	.	.
8E\J	.	(32cc/LLL	.	8G/J	.	8c/J	.	.	.	.	.	.	.	.	.	.	.	.
.	.	32b/)	.	.	.	.	.	.	.	.	.	.	.	.	.	.	.	.
.	.	(32a/	.	.	.	.	.	.	.	.	.	.	.	.	.	.	.	.
.	.	32g/JJJ)	.	.	.	.	.	.	.	.	.	.	.	.	.	.	.	.
=61	=61	=61	=61	=61	=61	=61	=61	=61	=61	=61	=61	=61	=61	=61	=61	=61	=61	=61
8F\L	.	(16g#X/LL	.	8A/L	.	8c/L	.	2ryy	2ryy	2ryy	.	.	2ryy	2ryy	1r	.	1r	.
.	.	16a/J)	.	.	.	.	.	.	.	.	.	.	.	.	.	.	.	.
8F\	.	8a/J	.	8A/	.	8c/	.	.	.	.	.	.	.	.	.	.	.	.
8F\	3	(32a\LLL	.	8A/	.	8d/	.	.	.	.	.	.	.	.	.	.	.	.
.	.	32bn\	.	.	.	.	.	.	.	.	.	.	.	.	.	.	.	.
.	.	32cc\)	.	.	.	.	.	.	.	.	.	.	.	.	.	.	.	.
.	.	32dd\JJJ	.	.	.	.	.	.	.	.	.	.	.	.	.	.	.	.
8F\J	2	(32cc\LLL	.	8G/J	.	8d/J	.	.	.	.	.	.	.	.	.	.	.	.
.	.	32b\	.	.	.	.	.	.	.	.	.	.	.	.	.	.	.	.
.	.	32a\)	.	.	.	.	.	.	.	.	.	.	.	.	.	.	.	.
.	.	32b\JJJ	.	.	.	.	.	.	.	.	.	.	.	.	.	.	.	.
!LO:PB:g=original	!	!	!	!	!	!	!	!	!	!	!	!	!	!	!	!	!	!
=62	=62	=62	=62	=62	=62	=62	=62	=62	=62	=62	=62	=62	=62	=62	=62	=62	=62	=62
!LO:TX:t=P:problem=mixed beam	!	!	!	!	!	!	!	!	!	!	!	!	!	!	!	!	!	!
8E\L	3	(32cc\LLL	.	8G/L	.	8e/L	.	2ryy	2ryy	2ryy	0r	.	2ryy	2ryy	.	.	.	.
.	.	32bn\	.	.	.	.	.	.	.	.	.	.	.	.	.	.	.	.
.	.	32cc\	.	.	.	.	.	.	.	.	.	.	.	.	.	.	.	.
.	.	32cc#X\JJJ)	.	.	.	.	.	.	.	.	.	.	.	.	.	.	.	.
8F\	3	(32dd\LLL	.	8A/	.	8f/	.	.	.	.	.	.	.	.	.	.	.	.
.	.	32ee\	.	.	.	.	.	.	.	.	.	.	.	.	.	.	.	.
.	.	32ff\	.	.	.	.	.	.	.	.	.	.	.	.	.	.	.	.
.	.	32dd\JJJ)	.	.	.	.	.	.	.	.	.	.	.	.	.	.	.	.
8G\	.	8ccn\L	.	8G/	.	8e/	.	.	.	.	.	.	.	.	.	.	.	.
8GG/J	.	8b\J	.	8G/J	.	8d/J	.	.	.	.	.	.	.	.	.	.	.	.
!	!	!	!	!	!	!LO:PB:g=original	!	!	!	!	!	!	!	!	!	!	!	!
=63	=63	=63	=63	=63	=63	=63	=63	=63	=63	=63	=63	=63	=63	=63	=63	=63	=63	=63
!	!	!	!	!LO:TX:a:t=meza voce	!	!	!	!	!	!	!	!	!	!	!	!	!	!
8C/L	.	(16.cc\LL	.	8G/L	.	(16.e/LL	.	2ryy	2ryy	2ryy	.	.	2ryy	2ryy	8r	.	8r	.
.	.	32ee\JJk)	.	.	.	32g/JJk)	.	.	.	.	.	.	.	.	.	.	.	.
!	!	!	!	!	!	!	!	!	!	!	!	!	!	!	!	!LO:DY:a:t=pio&colon;	!	!LO:DY:a:t=pio&colon;
8C/	.	16r	.	8G/	.	16r	.	.	.	.	.	.	.	.	8e/L	p	8g/L	p
.	.	16gW/	.	.	.	16eW/	.	.	.	.	.	.	.	.	.	.	.	.
8C/	.	(16a\LL	.	8A/	.	(16f/LL	.	.	.	.	.	.	.	.	(8f/	.	(8a/	.
.	.	16cc\)	.	.	.	16a/)	.	.	.	.	.	.	.	.	.	.	.	.
8C/J	.	(16bn\	.	8Bn/J	.	(16d/	.	.	.	.	.	.	.	.	8d/J)	.	8bn/J)	.
.	.	16dd\JJ)	.	.	.	16f/JJ)	.	.	.	.	.	.	.	.	.	.	.	.
!	!	!	!	!	!	!	!	!	!	!	!	!	!	!	!LO:LB:g=original	!	!	!
=64	=64	=64	=64	=64	=64	=64	=64	=64	=64	=64	=64	=64	=64	=64	=64	=64	=64	=64
!	!	!	!	!	!	!	!	!	!	!	!	!	!	!	!LO:TX:b:t=|	!	!	!
8C/L	.	(16.cc\LL	.	8c/L	.	(16.e/LL	.	2ryy	2ryy	2ryy	.	.	2ryy	2ryy	8d/L	.	8cc/L	.
.	.	32ee\JJk)	.	.	.	32g/JJk)	.	.	.	.	.	.	.	.	.	.	.	.
8C/	.	16r	.	8G/	.	16r	.	.	.	.	.	.	.	.	(8e/	.	(8g/	.
.	.	16gW/	.	.	.	16eW/	.	.	.	.	.	.	.	.	.	.	.	.
8C/	.	(16a\LL	.	8A/	.	(16f/LL	.	.	.	.	.	.	.	.	8f/	.	8a/	.
.	.	16cc\)	.	.	.	16a/)	.	.	.	.	.	.	.	.	.	.	.	.
8C/J	.	(16bn\	.	8Bn/J	.	(16d/	.	.	.	.	.	.	.	.	8e/J)	.	8bn/J)	.
.	.	16dd\JJ)	.	.	.	16f/JJ)	.	.	.	.	.	.	.	.	.	.	.	.
!	!	!	!	!LO:LB:g=original	!	!	!	!	!	!	!	!	!	!	!	!	!LO:LB:g=original	!
=65	=65	=65	=65	=65	=65	=65	=65	=65	=65	=65	=65	=65	=65	=65	=65	=65	=65	=65
!LO:TX:t=P:problem=mixed beam	!	!	!	!	!	!	!	!	!	!	!	!	!	!	!	!	!	!
8C/L	.	(4dd\	.	4Bn/	.	(4f/	.	2ryy	2ryy	2ryy	.	.	2ryy	2ryy	(4d/	.	4bn\	.
8c\	.	.	.	.	.	.	.	.	.	.	.	.	.	.	.	.	.	.
8C/J	.	8cc\)	.	8c/	.	8e/)	.	.	.	.	.	.	.	.	8e/)	.	8cc\	.
8r	.	8r	.	8r	.	8r	.	.	.	.	.	.	.	.	8r	.	8r	.
!LO:LB:g=original	!	!	!	!	!	!	!	!	!	!	!	!	!	!	!	!	!	!
=66	=66	=66	=66	=66	=66	=66	=66	=66	=66	=66	=66	=66	=66	=66	=66	=66	=66	=66
!	!	!	!LO:DY:rj	!	!LO:DY:a	!	!LO:DY:a:t=pio&colon;	!	!	!	!	!	!	!	!	!	!	!
8c\L	.	2ryy	p	8e/L 8G/	p	16cc\LL	p	2ryy	2ryy	2ryy	16cc\LL	Be-	2ryy	2ryy	0r	.	0r	.
.	.	.	.	.	.	16ee\JJ	.	.	.	.	16ee\JJ	.	.	.	.	.	.	.
8c\	.	.	.	8e/ 8G/	.	4gg\	.	.	.	.	4gg\	.	.	.	.	.	.	.
8c\	.	.	.	8e/ 8G/	.	.	.	.	.	.	.	.	.	.	.	.	.	.
8c\J	.	.	.	8e/J 8G/	.	(32aa\LLL	.	.	.	.	32aa\LLL	.	.	.	.	.	.	.
.	.	.	.	.	.	32gg\)	.	.	.	.	32gg\JJJ	.	.	.	.	.	.	.
.	.	.	.	.	.	(32ff\	.	.	.	.	32ff\LLL	-ne-	.	.	.	.	.	.
.	.	.	.	.	.	32ee\JJJ)	.	.	.	.	32ee\JJJ	.	.	.	.	.	.	.
=67	=67	=67	=67	=67	=67	=67	=67	=67	=67	=67	=67	=67	=67	=67	=67	=67	=67	=67
*2\right	*	*	*	*	*	*	*	*	*	*	*	*	*	*	*	*	*	*
*tremolo	*	*	*	*	*	*	*	*	*	*	*	*	*	*	*	*	*	*
8Bn\L	6	2ryy	.	8f/L 8G/	.	(16ee\LL	.	2ryy	2ryy	2ryy	16ee\LL	-di-	2ryy	2ryy	.	.	.	.
.	_	.	.	.	.	16dd\JJ)	.	.	.	.	16dd\JJ	.	.	.	.	.	.	.
8Bn\	.	.	.	8f/ 8G/	.	4dd\	.	.	.	.	4dd\	-ctus	.	.	.	.	.	.
8Bn\	.	.	.	8f/ 8G/	.	.	.	.	.	.	.	.	.	.	.	.	.	.
8Bn\J	.	.	.	8f/J 8G/	.	(32gg\LLL	.	.	.	.	32gg\LLL	qui	.	.	.	.	.	.
.	.	.	.	.	.	32ff\)	.	.	.	.	32ff\	.	.	.	.	.	.	.
.	.	.	.	.	.	(32ee\	.	.	.	.	32ee\	.	.	.	.	.	.	.
.	x	.	.	.	.	32dd\JJJ)	.	.	.	.	32dd\JJJ	.	.	.	.	.	.	.
*Xtremolo	*	*	*	*	*	*	*	*	*	*	*	*	*	*	*	*	*	*
!	!	!	!	!	!	!LO:LB:g=original	!	!	!	!	!LO:LB:g=original	!	!	!	!	!	!	!
=68	=68	=68	=68	=68	=68	=68	=68	=68	=68	=68	=68	=68	=68	=68	=68	=68	=68	=68
8A\L	.	2ryy	.	8e/L	.	16dd\LL	.	2ryy	2ryy	2ryy	16dd\LL	ve-	2ryy	2ryy	.	.	.	.
.	.	.	.	.	.	16cc\J	.	.	.	.	16cc\JJ	.	.	.	.	.	.	.
8A\	.	.	.	8e/	.	8cc\J	.	.	.	.	8cc\	-nit	.	.	.	.	.	.
8E\	6	.	.	8g/	.	8r	.	.	.	.	8r	.	.	.	.	.	.	.
8E\J	.	.	.	8g/J	.	16cc\LL	.	.	.	.	16cc\LL	qui	.	.	.	.	.	.
.	.	.	.	.	.	16ee\JJ	.	.	.	.	16ee\JJ	.	.	.	.	.	.	.
=69	=69	=69	=69	=69	=69	=69	=69	=69	=69	=69	=69	=69	=69	=69	=69	=69	=69	=69
8F\L	6 3	2ryy	.	8a/L	.	(16ee\LL	.	2ryy	2ryy	2ryy	16ee\LL	ve-	2ryy	2ryy	.	.	.	.
.	.	.	.	.	.	16dd\J)	.	.	.	.	16dd\JJ	.	.	.	.	.	.	.
8F\	.	.	.	8a/	.	(8.dd\J	.	.	.	.	8.dd\	-nit	.	.	.	.	.	.
8G\	n	.	.	8d/	.	.	.	.	.	.	.	.	.	.	.	.	.	.
.	_	.	.	.	.	16ff\LL)	.	.	.	.	16ff\	qui	.	.	.	.	.	.
8G\J	.	.	.	8d/J	.	(16bn\	.	.	.	.	16bn\LL	ve-	.	.	.	.	.	.
.	x	.	.	.	.	16dd\JJ)	.	.	.	.	16dd\JJ	.	.	.	.	.	.	.
=70	=70	=70	=70	=70	=70	=70	=70	=70	=70	=70	=70	=70	=70	=70	=70	=70	=70	=70
8A\L	.	2ryy	.	8e/L	.	(16dd\LL	.	2ryy	2ryy	2ryy	16dd\LL	.	2ryy	2ryy	2r	.	2r	.
.	.	.	.	.	.	16cc\J)	.	.	.	.	16cc\JJ	.	.	.	.	.	.	.
!	!	!	!	!	!	!LO:TX:a:t=|	!	!	!	!	!	!	!	!	!	!	!	!
8A\	.	.	.	8e/	.	8cc\J	.	.	.	.	8cc\	-nit	.	.	.	.	.	.
8E\	6	.	.	8g/	.	8r	.	.	.	.	8r	.	.	.	.	.	.	.
8E\J	.	.	.	8g/J	.	16dd\LL	.	.	.	.	16cc\LL	in	.	.	.	.	.	.
.	.	.	.	.	.	16ee\JJ	.	.	.	.	16ee\JJ	.	.	.	.	.	.	.
=71	=71	=71	=71	=71	=71	=71	=71	=71	=71	=71	=71	=71	=71	=71	=71	=71	=71	=71
8F\L	6	2ryy	.	8a/L	.	(32ee\LLL	.	2ryy	2ryy	2ryy	8dd\	no-	2ryy	2ryy	8r	.	8r	.
.	_	.	.	.	.	32dd\	.	.	.	.	.	.	.	.	.	.	.	.
.	.	.	.	.	.	32cc\	.	.	.	.	.	.	.	.	.	.	.	.
.	.	.	.	.	.	32dd\JJJ)	.	.	.	.	.	.	.	.	.	.	.	.
8F\	.	.	.	8f/	.	16ff\LL	.	.	.	.	16ff\	-mi-	.	.	8dd\L	.	8ff\L	.
.	.	.	.	.	.	16dd\JJ	.	.	.	.	16dd\	-ne	.	.	.	.	.	.
8G\	4	.	.	8e/	.	16dd\LL	.	.	.	.	16dd\LL	Do-	.	.	8cc\	.	8ee\	.
.	.	.	.	.	.	16cc\	.	.	.	.	16cc\JJ	.	.	.	.	.	.	.
8G\J	n	.	.	8d/J	.	16cc\	.	.	.	.	16cc\LL	-mi-	.	.	8bn\J	.	8dd\J	.
.	.	.	.	.	.	16bn\JJ	.	.	.	.	16bn\JJ	.	.	.	.	.	.	.
!	!	!	!	!LO:LB:g=original	!	!	!	!	!	!	!LO:LB:g=original	!	!	!	!	!	!	!
=72	=72	=72	=72	=72	=72	=72	=72	=72	=72	=72	=72	=72	=72	=72	=72	=72	=72	=72
!	!	!	!	!	!	!LO:TX:t=P:problem=mixed beam	!	!	!	!	!	!	!	!	!	!	!	!
16C\LL	.	2ryy	.	8e/L	.	8cc\L	.	2ryy	2ryy	2ryy	4cc\	-ni	2ryy	2ryy	8cc\L	.	8ee\L	.
16c\	.	.	.	.	.	.	.	.	.	.	.	.	.	.	.	.	.	.
16G\	.	.	.	16e/L	.	8c/J	.	.	.	.	.	.	.	.	8cc\	.	8ee\	.
16E\JJ	.	.	.	16g/JJ	.	.	.	.	.	.	.	.	.	.	.	.	.	.
!	!	!	!	!	!	!LO:LB:g=original	!	!	!	!	!	!	!	!	!	!	!	!
8C/	.	.	.	8e/	.	8r	.	.	.	.	8r	.	.	.	8cc\J	.	8ee\J	.
8r	.	.	.	8r	.	8ee\	.	.	.	.	16ee\	Be-	.	.	8r	.	8r	.
.	.	.	.	.	.	.	.	.	.	.	16ee\	-ne-	.	.	.	.	.	.
=73	=73	=73	=73	=73	=73	=73	=73	=73	=73	=73	=73	=73	=73	=73	=73	=73	=73	=73
4c\	3	2ryy	.	4g/	.	(32ee\LLL	.	2ryy	2ryy	2ryy	32ee\LLL	-di-	2ryy	2ryy	1r	.	1r	.
.	_	.	.	.	.	32dd\	.	.	.	.	32dd\	.	.	.	.	.	.	.
.	.	.	.	.	.	32ee\)	.	.	.	.	32ee\	.	.	.	.	.	.	.
.	.	.	.	.	.	32ff\JJ	.	.	.	.	32ff\JJJ	.	.	.	.	.	.	.
!	!	!	!	!	!	!LO:TX:a:t=|	!	!	!	!	!	!	!	!	!	!	!	!
.	.	.	.	.	.	8ee\J	.	.	.	.	8ee\	-ctus	.	.	.	.	.	.
4B-X\	.	.	.	4g/	.	8r	.	.	.	.	8r	.	.	.	.	.	.	.
*	*	*	*	*	*	*	*	*	*	*	*	*ij	*	*	*	*	*	*
.	.	.	.	.	.	8ee\	.	.	.	.	16ee\	Be-	.	.	.	.	.	.
.	x	.	.	.	.	.	.	.	.	.	16ee\	-ne-	.	.	.	.	.	.
!LO:LB:g=original	!	!	!	!	!	!	!	!	!	!	!	!	!	!	!	!	!	!
=74	=74	=74	=74	=74	=74	=74	=74	=74	=74	=74	=74	=74	=74	=74	=74	=74	=74	=74
4A\	#	2ryy	.	4c#X/	.	(32ee\LLL	.	2ryy	2ryy	2ryy	32ee\LLL	-di	2ryy	2ryy	.	.	.	.
.	.	.	.	.	.	32dd\	.	.	.	.	32dd\	.	.	.	.	.	.	.
.	.	.	.	.	.	32ee\)	.	.	.	.	32ee\	.	.	.	.	.	.	.
.	.	.	.	.	.	32ff\JJ	.	.	.	.	32ff\JJJ	.	.	.	.	.	.	.
!	!	!	!	!	!	!LO:TX:a:t=|	!	!	!	!	!	!	!	!	!	!	!	!
.	.	.	.	.	.	8ee\J	.	.	.	.	8ee\	ctus	.	.	.	.	.	.
4c#X\	6	.	.	4a/	.	8r	.	.	.	.	8r	.	.	.	.	.	.	.
.	.	.	.	.	.	8ee\	.	.	.	.	16ee\	Be-	.	.	.	.	.	.
.	.	.	.	.	.	.	.	.	.	.	16ee\	-ne-	.	.	.	.	.	.
=75	=75	=75	=75	=75	=75	=75	=75	=75	=75	=75	=75	=75	=75	=75	=75	=75	=75	=75
4d\	6\ 3	2ryy	.	4a/	.	16ee\LL	.	2ryy	2ryy	2ryy	16ee\LL	-di	2ryy	2ryy	2r	.	2r	.
.	.	.	.	.	.	16ff\JJ	.	.	.	.	16ff\JJ	.	.	.	.	.	.	.
.	.	.	.	.	.	4ff\	.	.	.	.	4ff\	ctus	.	.	.	.	.	.
*	*	*	*	*	*	*	*	*	*	*	*	*Xij	*	*	*	*	*	*
4B-\	.	.	.	4g#X/	.	.	.	.	.	.	.	.	.	.	.	.	.	.
!	!	!	!	!	!	!	!	!	!	!	!LO:LB:g=original	!	!	!	!	!	!	!
.	.	.	.	.	.	16ee\LL	.	.	.	.	16ee\LL	qui	.	.	.	.	.	.
.	.	.	.	.	.	16dd\JJ	.	.	.	.	16dd\JJ	.	.	.	.	.	.	.
=76	=76	=76	=76	=76	=76	=76	=76	=76	=76	=76	=76	=76	=76	=76	=76	=76	=76	=76
4A\	#	2ryy	.	4a/	.	16dd\LL	.	2ryy	2ryy	2ryy	16dd\LL	ve-	2ryy	2ryy	8r	.	8r	.
.	.	.	.	.	.	16cc#X\J	.	.	.	.	16cc#X\JJ	.	.	.	.	.	.	.
!	!	!	!	!	!	!	!	!	!	!	!	!	!	!	!	!LO:DY:a:t=pio&colon;	!	!LO:DY:a:t=pio&colon;
.	.	.	.	.	.	8cc#\J	.	.	.	.	8cc#\	-nit	.	.	8a/L	p	16cc#X\LL	p
.	.	.	.	.	.	.	.	.	.	.	.	.	.	.	.	.	16dd\JJ	.
4c#X\	6 5	.	.	4a/	.	8r	.	.	.	.	8r	.	.	.	8a/	.	8ee\L	.
.	.	.	.	.	.	8ee\	.	.	.	.	8ee\	in	.	.	8a/J	.	8ee\J	.
!	!	!	!	!	!	!	!	!	!	!	!	!	!	!	!LO:LB:g=original	!	!	!
=77	=77	=77	=77	=77	=77	=77	=77	=77	=77	=77	=77	=77	=77	=77	=77	=77	=77	=77
!LO:TX:t=P:problem=mixed beam	!	!	!	!	!	!	!	!	!	!	!	!	!	!	!	!	!	!
8d\L	.	2ryy	.	8a/L	.	16dd\LL	.	2ryy	2ryy	2ryy	16dd\LL	no-	2ryy	2ryy	8a/L	.	8ff\L	.
.	.	.	.	.	.	16ff\	.	.	.	.	16ff\JJ	.	.	.	.	.	.	.
8G\	6	.	.	16b-/L	.	16gg\	.	.	.	.	16gg\	-mi-	.	.	16b-/L	.	16gg\L	.
.	.	.	.	16g/JJ	.	16ee\JJ	.	.	.	.	16ee\	-ne	.	.	16g/JJ	.	16ee\JJ	.
!	!	!	!	!	!	!LO:LB:g=original	!	!	!	!	!	!	!	!	!	!	!	!
8A\	4	.	.	8f/L	.	16ee\LL	.	.	.	.	8dd\	Do-	.	.	8f/L	.	8dd\L	.
.	.	.	.	.	.	16dd\	.	.	.	.	.	.	.	.	.	.	.	.
8AA/J	#	.	.	8e/J	.	16dd\	.	.	.	.	8cc#X\	-mi-	.	.	8e/J	.	8cc#X\J	.
.	.	.	.	.	.	16cc#X\JJ	.	.	.	.	.	.	.	.	.	.	.	.
!	!	!	!	!	!	!	!	!	!	!	!	!	!	!	!	!	!LO:LB:g=original	!
=78	=78	=78	=78	=78	=78	=78	=78	=78	=78	=78	=78	=78	=78	=78	=78	=78	=78	=78
4D\	.	(32dd\LLL	.	4f/	.	4dd\	.	2ryy	2ryy	2ryy	4dd\	-ni	2ryy	2ryy	4f/	.	4dd\	.
.	.	32cc#X\	.	.	.	.	.	.	.	.	.	.	.	.	.	.	.	.
.	.	32dd\	.	.	.	.	.	.	.	.	.	.	.	.	.	.	.	.
.	.	32ee\JJJ)	.	.	.	.	.	.	.	.	.	.	.	.	.	.	.	.
.	.	(32ff\LLL	.	.	.	.	.	.	.	.	.	.	.	.	.	.	.	.
.	.	32ee\	.	.	.	.	.	.	.	.	.	.	.	.	.	.	.	.
.	.	32ff\)	.	.	.	.	.	.	.	.	.	.	.	.	.	.	.	.
.	.	32gg\JJJ	.	.	.	.	.	.	.	.	.	.	.	.	.	.	.	.
8r	.	(32aa\LLL	.	8r	.	8r	.	.	.	.	8r	.	.	.	4r	.	4r	.
.	.	32gg\	.	.	.	.	.	.	.	.	.	.	.	.	.	.	.	.
.	.	32aa\	.	.	.	.	.	.	.	.	.	.	.	.	.	.	.	.
.	.	32bb-\JJJ)	.	.	.	.	.	.	.	.	.	.	.	.	.	.	.	.
8F\	3	(32aa\LLL	.	8a/	.	8dd\	.	.	.	.	8dd\	qui	.	.	.	.	.	.
.	.	(32ff\)	.	.	.	.	.	.	.	.	.	.	.	.	.	.	.	.
.	.	32ee\)	.	.	.	.	.	.	.	.	.	.	.	.	.	.	.	.
.	.	32cc#\JJJ	.	.	.	.	.	.	.	.	.	.	.	.	.	.	.	.
!	!	!	!	!LO:LB:g=original	!	!	!	!	!	!	!	!	!	!	!	!	!	!
=79	=79	=79	=79	=79	=79	=79	=79	=79	=79	=79	=79	=79	=79	=79	=79	=79	=79	=79
!LO:TX:t=P:problem=mixed beam	!	!	!	!	!	!	!	!	!	!	!	!	!	!	!	!	!	!
8A\L	.	16dd\LL	.	8e/L	.	(8.cc#X\L	.	2ryy	2ryy	2ryy	8.cc#X\L	ve-	2ryy	2ryy	8r	.	8r	.
.	.	16cc#X\J	.	.	.	.	.	.	.	.	.	.	.	.	.	.	.	.
16AA/L	.	8cc#\J	.	8e/	.	.	.	.	.	.	.	.	.	.	8g/L	.	8cc#X\L	.
16BB-/JJ	.	.	.	.	.	16dd\Jk)	.	.	.	.	16dd\Jk	.	.	.	.	.	.	.
!	!	!	!	!	!	!	!	!	!	!	!LO:LB:g=original	!	!	!	!	!	!	!
8C#X/L	.	4r	.	8e/	.	(16ee\LL	.	.	.	.	16ee\LL	-nit	.	.	8g/	.	8cc#\	.
.	.	.	.	.	.	16ff\)	.	.	.	.	16ff\JJ	.	.	.	.	.	.	.
8AA/J	.	.	.	8c#X/J	.	(16gg\	.	.	.	.	16gg\LL	qui	.	.	8g/J	.	8cc#\J	.
.	.	.	.	.	.	16ee\JJ)	.	.	.	.	16ee\JJ	.	.	.	.	.	.	.
!LO:LB:g=original	!	!	!	!	!	!	!	!	!	!	!	!	!	!	!	!	!	!
=80	=80	=80	=80	=80	=80	=80	=80	=80	=80	=80	=80	=80	=80	=80	=80	=80	=80	=80
4D\	.	(32dd\LLL	.	4A/	.	16ee\LL	.	2ryy	2ryy	2ryy	16ee\LL	ve-	2ryy	2ryy	4f/	.	4dd\	.
.	.	32cc#X\	.	.	.	.	.	.	.	.	.	.	.	.	.	.	.	.
.	.	32dd\)	.	.	.	16dd\J	.	.	.	.	16dd\JJ	.	.	.	.	.	.	.
.	.	32ee\JJJ	.	.	.	.	.	.	.	.	.	.	.	.	.	.	.	.
.	.	(32ff\LLL	.	.	.	8dd\J	.	.	.	.	8dd\	-nit	.	.	.	.	.	.
.	.	32ee\	.	.	.	.	.	.	.	.	.	.	.	.	.	.	.	.
.	.	32ff\)	.	.	.	.	.	.	.	.	.	.	.	.	.	.	.	.
.	.	32gg\JJJ	.	.	.	.	.	.	.	.	.	.	.	.	.	.	.	.
8r	.	(32aa\LLL	.	8r	.	8r	.	.	.	.	8r	.	.	.	4r	.	4r	.
.	.	32gg\	.	.	.	.	.	.	.	.	.	.	.	.	.	.	.	.
.	.	32aa\	.	.	.	.	.	.	.	.	.	.	.	.	.	.	.	.
.	.	32bb-\JJJ)	.	.	.	.	.	.	.	.	.	.	.	.	.	.	.	.
*	*	*	*	*	*	*	*	*	*	*	*	*ij	*	*	*	*	*	*
8F\	3	(32aa\LLL	.	8A/	.	8dd\	.	.	.	.	8dd\	qui	.	.	.	.	.	.
.	.	32ff\)	.	.	.	.	.	.	.	.	.	.	.	.	.	.	.	.
.	.	32ee\	.	.	.	.	.	.	.	.	.	.	.	.	.	.	.	.
.	.	32cc#\JJJ	.	.	.	.	.	.	.	.	.	.	.	.	.	.	.	.
=81	=81	=81	=81	=81	=81	=81	=81	=81	=81	=81	=81	=81	=81	=81	=81	=81	=81	=81
!LO:TX:t=P:problem=mixed beam	!	!	!	!	!	!	!	!	!	!	!	!	!	!	!	!	!	!
8A\L	.	16dd\LL	.	8e/L	.	(8.cc#X\L	.	2ryy	2ryy	2ryy	8.cc#X\L	ve-	2ryy	2ryy	8r	.	8r	.
.	.	16cc#X\J	.	.	.	.	.	.	.	.	.	.	.	.	.	.	.	.
16AA/L	.	8cc#\J	.	8e/	.	.	.	.	.	.	.	.	.	.	8g/L	.	8cc#X\L	.
16BB-/JJ	.	.	.	.	.	16dd\Jk)	.	.	.	.	16dd\Jk	.	.	.	.	.	.	.
8C#X/L	.	4r	.	8e/	.	(16ee\LL	.	.	.	.	16ee\LL	-nit	.	.	8g/	.	8cc#\	.
.	.	.	.	.	.	(16ff\)	.	.	.	.	16ff\JJ	.	.	.	.	.	.	.
8AA/J	.	.	.	8c#X/J	.	16gg\	.	.	.	.	16gg\LL	qui	.	.	8g/J	.	8cc#\J	.
.	.	.	.	.	.	16ee\JJ)	.	.	.	.	16ee\JJ	.	.	.	.	.	.	.
=82	=82	=82	=82	=82	=82	=82	=82	=82	=82	=82	=82	=82	=82	=82	=82	=82	=82	=82
*	*	*	*	*^	*	*	*	*	*	*	*	*	*	*	*	*	*	*
4D\	.	(32dd\LLL	.	4A/	4ryy	.	16ee\LL	.	2ryy	2ryy	2ryy	16ee\LL	ve-	2ryy	2ryy	4f/	.	4dd\	.
.	.	32cc#X\	.	.	.	.	.	.	.	.	.	.	.	.	.	.	.	.	.
.	.	32dd\	.	.	.	.	16dd\J	.	.	.	.	16dd\JJ	.	.	.	.	.	.	.
.	.	32ee\JJJ)	.	.	.	.	.	.	.	.	.	.	.	.	.	.	.	.	.
.	.	(32ff\LLL	.	.	.	.	8dd\J	.	.	.	.	8dd\	-nit	.	.	.	.	.	.
*	*	*	*	*	*	*	*	*	*	*	*	*	*Xij	*	*	*	*	*	*
.	.	32ee\	.	.	.	.	.	.	.	.	.	.	.	.	.	.	.	.	.
.	.	32ff\	.	.	.	.	.	.	.	.	.	.	.	.	.	.	.	.	.
.	.	32gg\JJJ)	.	.	.	.	.	.	.	.	.	.	.	.	.	.	.	.	.
!	!	!	!	!	!	!	!LO:LB:g=original	!	!	!	!	!	!	!	!	!	!	!	!
8r	.	(32aa\LLL	.	8r	8ryy	.	8r	.	.	.	.	8r	.	.	.	8r	.	8r	.
.	.	32gg\	.	.	.	.	.	.	.	.	.	.	.	.	.	.	.	.	.
.	.	32aa\	.	.	.	.	.	.	.	.	.	.	.	.	.	.	.	.	.
.	.	32bb-\JJJ)	.	.	.	.	.	.	.	.	.	.	.	.	.	.	.	.	.
8F\	3	(32aa\LLL	.	8a/	8f\	.	8dd\	.	.	.	.	8dd\	qui	.	.	8a/	.	8dd\	.
.	.	(32ff\)	.	.	.	.	.	.	.	.	.	.	.	.	.	.	.	.	.
.	.	32ee\)	.	.	.	.	.	.	.	.	.	.	.	.	.	.	.	.	.
.	.	32dd\JJJ	.	.	.	.	.	.	.	.	.	.	.	.	.	.	.	.	.
!LO:LB:g=original	!	!	!	!	!	!	!	!	!	!	!	!LO:LB:g=original	!	!	!	!	!	!	!
=83	=83	=83	=83	=83	=83	=83	=83	=83	=83	=83	=83	=83	=83	=83	=83	=83	=83	=83	=83
*	*	*	*	*	*Xtremolo	*	*	*	*	*	*	*	*	*	*	*	*	*	*
16G\LL	4# 2	8cc#X\	.	16a/LL	16e\LL	.	(8.cc#X\L	.	2ryy	2ryy	2ryy	8.cc#X\L	ve-	2ryy	2ryy	4a/	.	(4cc#X\	.
16G\	_ _	.	.	16a/	16e\	.	.	.	.	.	.	.	.	.	.	.	.	.	.
16G\	.	8r	.	16a/	16e\	.	.	.	.	.	.	.	.	.	.	.	.	.	.
16G\JJ	.	.	.	16a/JJ	16e\JJ	.	32b-\LL)	.	.	.	.	32b-\LL	.	.	.	.	.	.	.
.	.	.	.	.	.	.	32cc#\JJJ	.	.	.	.	32cc#\JJJ	.	.	.	.	.	.	.
*	*	*	*	*tremolo	*tremolo	*	*	*	*	*	*	*	*	*	*	*	*	*	*
!	!	!	!	!	!	!	!LO:TX:a:t=|	!	!	!	!	!	!	!	!	!	!	!	!
16F\LL	6	4r	.	16a/LL	16f\LL	.	8dd\L	.	.	.	.	8dd\	-nit	.	.	4a/	.	4dd\	.
16F\	_	.	.	16a/	16f\	.	.	.	.	.	.	.	.	.	.	.	.	.	.
!	!	!	!	!	!	!	!LO:TX:a:t=|	!	!	!	!	!	!	!	!	!	!	!	!
16F\	.	.	.	16a/	16f\	.	8dd\J	.	.	.	.	8dd\	qui	.	.	.	.	.	.
16F\JJ	x	.	.	16a/JJ	16f\JJ	.	.	.	.	.	.	.	.	.	.	.	.	.	.
=84	=84	=84	=84	=84	=84	=84	=84	=84	=84	=84	=84	=84	=84	=84	=84	=84	=84	=84	=84
16C#X/LL	6 5	2ryy	.	16a/LL	16e\LL	.	(8.ee\L	.	2ryy	2ryy	2ryy	8.ee\L	ve-	2ryy	2ryy	4a/	.	4ee\	.
16C#/	_ _	.	.	16a/	16e\	.	.	.	.	.	.	.	.	.	.	.	.	.	.
16C#/	.	.	.	16a/	16e\	.	.	.	.	.	.	.	.	.	.	.	.	.	.
16C#/JJ	x	.	.	16a/JJ	16e\JJ	.	32ff\LL	.	.	.	.	32ff\LL	.	.	.	.	.	.	.
.	.	.	.	.	.	.	32gg\JJJ)	.	.	.	.	32gg\JJJ	.	.	.	.	.	.	.
!	!	!	!	!	!	!	!LO:TX:a:t=|	!	!	!	!	!	!	!	!	!	!	!	!
*tremolo	*	*	*	*	*	*	*	*	*	*	*	*	*	*	*	*	*	*	*
16D\LL	.	.	.	16a/LL	16f\LL	.	8ff\L	.	.	.	.	8ff\	-nit	.	.	4a/	.	4dd\)	.
16D\	.	.	.	16a/	16f\	.	.	.	.	.	.	.	.	.	.	.	.	.	.
!	!	!	!	!	!	!	!LO:TX:a:t=|	!	!	!	!	!	!	!	!	!	!	!	!
16D\	.	.	.	16a/	16f\	.	8ff\J	.	.	.	.	8ff\	in	.	.	.	.	.	.
16D\JJ	.	.	.	16a/JJ	16f\JJ	.	.	.	.	.	.	.	.	.	.	.	.	.	.
*	*	*	*	*v	*v	*	*	*	*	*	*	*	*	*	*	*	*	*	*
!	!	!	!	!	!	!	!	!	!	!	!	!	!	!	!LO:LB:g=original	!	!	!
=85	=85	=85	=85	=85	=85	=85	=85	=85	=85	=85	=85	=85	=85	=85	=85	=85	=85	=85
16G\LL	6	2ryy	.	16b-/LL	.	16ff\LL	.	2ryy	2ryy	2ryy	16ff\LL	no-	2ryy	2ryy	4g/	.	4ee\	.
16G\	.	.	.	16b-/	.	16ee\	.	.	.	.	16ee\JJ	.	.	.	.	.	.	.
16G\	.	.	.	16b-/	.	16gg\	.	.	.	.	16gg\	-mi-	.	.	.	.	.	.
16G\JJ	.	.	.	16b-/JJ	.	16ee\JJ	.	.	.	.	16ee\	-ne	.	.	.	.	.	.
*	*	*	*	*Xtremolo	*	*	*	*	*	*	*	*	*	*	*	*	*	*
*Xtremolo	*	*	*	*	*	*	*	*	*	*	*	*	*	*	*	*	*	*
!	!	!	!	!LO:LB:g=original	!	!	!	!	!	!	!	!	!	!	!	!	!	!
!LO:TX:t=P:problem=mixed beam	!	!	!	!	!	!	!	!	!	!	!	!	!	!	!	!	!	!
16A\LL	4	.	.	8f/L	.	8dd\L	.	.	.	.	8dd\	Do-	.	.	8f/L	.	8dd\L	.
16A\	.	.	.	.	.	.	.	.	.	.	.	.	.	.	.	.	.	.
16AA/	#	.	.	8e/J	.	8cc#X\J	.	.	.	.	8cc#X\	-mi-	.	.	8e/J	.	8cc#X\J	.
16AA/JJ	.	.	.	.	.	.	.	.	.	.	.	.	.	.	.	.	.	.
!	!	!	!	!	!	!	!	!	!	!	!	!	!	!	!	!	!LO:LB:g=original	!
=86	=86	=86	=86	=86	=86	=86	=86	=86	=86	=86	=86	=86	=86	=86	=86	=86	=86	=86
!	!	!	!	!	!	!	!	!	!	!	!LO:TX:b:t=Verte	!	!	!	!	!	!	!
4D\	.	8r	.	4d/	.	4dd\	.	2ryy	2ryy	2ryy	4dd\	-ni	2ryy	2ryy	4f/	.	4dd\	.
.	.	(32ff#X\LLL	.	.	.	.	.	.	.	.	.	.	.	.	.	.	.	.
.	.	32ee\	.	.	.	.	.	.	.	.	.	.	.	.	.	.	.	.
.	.	32ff#\)	.	.	.	.	.	.	.	.	.	.	.	.	.	.	.	.
.	.	32gg\JJJ	.	.	.	.	.	.	.	.	.	.	.	.	.	.	.	.
8r	.	(16aa\LL	.	8r	.	8r	.	.	.	.	4r	.	.	.	4r	.	4r	.
.	.	16ff#\)	.	.	.	.	.	.	.	.	.	.	.	.	.	.	.	.
8F#X\	3	16dd\	.	8A/	.	8d/	.	.	.	.	.	.	.	.	.	.	.	.
.	.	16ccn\JJ	.	.	.	.	.	.	.	.	.	.	.	.	.	.	.	.
!	!	!	!	!	!	!	!	!	!	!	!LO:PB:g=original	!	!	!	!	!	!	!
=87	=87	=87	=87	=87	=87	=87	=87	=87	=87	=87	=87	=87	=87	=87	=87	=87	=87	=87
4G\	.	(32cc\LLL	.	4B-/	.	4d/	.	2ryy	2ryy	2ryy	8r	.	2ryy	2ryy	0r	.	0r	.
.	.	32b-\	.	.	.	.	.	.	.	.	.	.	.	.	.	.	.	.
.	.	32a\	.	.	.	.	.	.	.	.	.	.	.	.	.	.	.	.
.	.	32b-\JJ)	.	.	.	.	.	.	.	.	.	.	.	.	.	.	.	.
!	!	!	!	!	!	!	!	!	!	!	!LO:TUP:a:problem=klamra łukowa	!	!	!	!	!	!	!
.	.	8b-\J	.	.	.	.	.	.	.	.	24b-\LL	qui	.	.	.	.	.	.
.	.	.	.	.	.	.	.	.	.	.	24ccn\	.	.	.	.	.	.	.
.	.	.	.	.	.	.	.	.	.	.	24dd\JJ	.	.	.	.	.	.	.
!	!	!	!	!	!	!	!	!	!	!	!LO:TUP:a:problem=klamra łukowa	!	!	!	!	!	!	!
8r	.	4r	.	8r	.	8r	.	.	.	.	24dd\LL	ve-	.	.	.	.	.	.
.	.	.	.	.	.	.	.	.	.	.	24ee\	.	.	.	.	.	.	.
.	.	.	.	.	.	.	.	.	.	.	24ff\JJ	.	.	.	.	.	.	.
!	!	!	!	!	!	!	!	!	!	!	!LO:TUP:a:problem=klamra łukowa	!	!	!	!	!	!	!
8BBn/	6 5	.	.	8d/	.	8g/	.	.	.	.	24ff\LL	.	.	.	.	.	.	.
.	.	.	.	.	.	.	.	.	.	.	24ee\	.	.	.	.	.	.	.
.	.	.	.	.	.	.	.	.	.	.	24dd\JJ	.	.	.	.	.	.	.
!LO:LB:g=original	!	!	!	!	!	!LO:LB:g=original	!	!	!	!	!	!	!	!	!	!	!	!
=88	=88	=88	=88	=88	=88	=88	=88	=88	=88	=88	=88	=88	=88	=88	=88	=88	=88	=88
4C/	.	8r	.	4e/	.	4g/	.	2ryy	2ryy	2ryy	4ee\	-nit	2ryy	2ryy	.	.	.	.
.	.	(32ee\LLL	.	.	.	.	.	.	.	.	.	.	.	.	.	.	.	.
.	.	32dd\	.	.	.	.	.	.	.	.	.	.	.	.	.	.	.	.
.	.	32ee\)	.	.	.	.	.	.	.	.	.	.	.	.	.	.	.	.
.	.	32ffn\JJJ	.	.	.	.	.	.	.	.	.	.	.	.	.	.	.	.
8r	.	(16gg\LL	.	8r	.	8r	.	.	.	.	4r	.	.	.	.	.	.	.
.	.	16ee\)	.	.	.	.	.	.	.	.	.	.	.	.	.	.	.	.
8E\	.	(16cc\	.	8G/	.	8c/	.	.	.	.	.	.	.	.	.	.	.	.
.	.	16b-X\JJ)	.	.	.	.	.	.	.	.	.	.	.	.	.	.	.	.
=89	=89	=89	=89	=89	=89	=89	=89	=89	=89	=89	=89	=89	=89	=89	=89	=89	=89	=89
4F\	.	32b-/LLL	.	4A/	.	4c/	.	2ryy	2ryy	2ryy	8r	.	2ryy	2ryy	.	.	.	.
.	.	(32a/	.	.	.	.	.	.	.	.	.	.	.	.	.	.	.	.
.	.	32g/)	.	.	.	.	.	.	.	.	.	.	.	.	.	.	.	.
.	.	32a/JJ	.	.	.	.	.	.	.	.	.	.	.	.	.	.	.	.
!	!	!	!	!	!	!	!	!	!	!	!LO:TUP:a:problem=klamra łukowa	!	!	!	!	!	!	!
.	.	8a/J	.	.	.	.	.	.	.	.	24a\LL	qui	.	.	.	.	.	.
.	.	.	.	.	.	.	.	.	.	.	24b-\	.	.	.	.	.	.	.
.	.	.	.	.	.	.	.	.	.	.	24cc\JJ	.	.	.	.	.	.	.
!	!	!	!	!	!	!	!	!	!	!	!LO:TUP:a:problem=klamra łukowa	!	!	!	!	!	!	!
8r	.	4r	.	8r	.	8r	.	.	.	.	24cc\LL	ve-	.	.	.	.	.	.
.	.	.	.	.	.	.	.	.	.	.	24dd\	.	.	.	.	.	.	.
.	.	.	.	.	.	.	.	.	.	.	24ee-X\JJ	.	.	.	.	.	.	.
!	!	!	!	!	!	!	!	!	!	!	!LO:TUP:a:problem=klamra łukowa	!	!	!	!	!	!	!
8A\	6 5-	.	.	8c/	.	8f/	.	.	.	.	24ee-\LL	.	.	.	.	.	.	.
.	.	.	.	.	.	.	.	.	.	.	24dd\	.	.	.	.	.	.	.
.	.	.	.	.	.	.	.	.	.	.	24cc\JJ	.	.	.	.	.	.	.
=90	=90	=90	=90	=90	=90	=90	=90	=90	=90	=90	=90	=90	=90	=90	=90	=90	=90	=90
8B-\L	.	2ryy	.	8d/L	.	8f/	.	2ryy	2ryy	2ryy	16cc\LL	.	2ryy	2ryy	.	.	.	.
.	.	.	.	.	.	.	.	.	.	.	16dd\JJ	.	.	.	.	.	.	.
8B-\	.	.	.	8d/	.	4dd\	.	.	.	.	4dd\	-nit	.	.	.	.	.	.
8B-\	6	.	.	8d/	.	.	.	.	.	.	.	.	.	.	.	.	.	.
8B-\J	5	.	.	8d/J	.	(16gg\LL	.	.	.	.	16gg\LL	in	.	.	.	.	.	.
.	.	.	.	.	.	16ff\JJ)	.	.	.	.	16ff\JJ	.	.	.	.	.	.	.
=91	=91	=91	=91	=91	=91	=91	=91	=91	=91	=91	=91	=91	=91	=91	=91	=91	=91	=91
8B-\L	4 2	2ryy	.	8c/L	.	16ff\LL	.	2ryy	2ryy	2ryy	16ff\LL	no-	2ryy	2ryy	2r	.	2r	.
.	_ _	.	.	.	.	16ee\J	.	.	.	.	16een\J	.	.	.	.	.	.	.
16c\L	.	.	.	8c/	.	(8.ee\J	.	.	.	.	8ee\J	.	.	.	.	.	.	.
16B-\JJ	.	.	.	.	.	.	.	.	.	.	.	.	.	.	.	.	.	.
!	!	!	!	!	!	!	!	!	!	!	!LO:LB:g=original	!	!	!	!	!	!	!
8A\L	6	.	.	8c/	.	.	.	.	.	.	32ee\LLL	.	.	.	.	.	.	.
.	_	.	.	.	.	.	.	.	.	.	32ff\	.	.	.	.	.	.	.
.	.	.	.	.	.	48ff\LLL	.	.	.	.	32gg\	.	.	.	.	.	.	.
.	.	.	.	.	.	48gg\	.	.	.	.	.	.	.	.	.	.	.	.
.	.	.	.	.	.	.	.	.	.	.	32ff\JJJ	.	.	.	.	.	.	.
.	.	.	.	.	.	48ff\JJJ)	.	.	.	.	.	.	.	.	.	.	.	.
8A\J	.	.	.	8f/J	.	(32ee\LLL	.	.	.	.	32ee\LLL	.	.	.	.	.	.	.
.	.	.	.	.	.	32ee-X\	.	.	.	.	32ee-X\	.	.	.	.	.	.	.
.	.	.	.	.	.	32dd\	.	.	.	.	32dd\	.	.	.	.	.	.	.
.	x	.	.	.	.	32cc\JJJ)	.	.	.	.	32cc\JJJ	.	.	.	.	.	.	.
!	!	!	!	!LO:LB:g=original	!	!	!	!	!	!	!	!	!	!	!	!	!	!
=92	=92	=92	=92	=92	=92	=92	=92	=92	=92	=92	=92	=92	=92	=92	=92	=92	=92	=92
!LO:TX:t=P:problem=mixed beam	!	!	!	!	!	!	!	!	!	!	!	!	!	!	!	!	!	!
8B-\L	6_	2ryy	.	8g/L	.	(16cc#X\LL	.	2ryy	2ryy	2ryy	16cc#X\LL	.	2ryy	2ryy	8r	.	8r	.
.	.	.	.	.	.	(16dd\)	.	.	.	.	16dd\JJ	.	.	.	.	.	.	.
8B-\	.	.	.	16b-/L	.	16bb-\	.	.	.	.	16bb-\	-mi-	.	.	8b-/L	.	8gg\L	.
.	.	.	.	16g/JJ	.	16gg\JJ)	.	.	.	.	16gg\	-ne	.	.	.	.	.	.
8c\	4	.	.	8f/L 8A/	.	8ff\L	.	.	.	.	8ff\	Do-	.	.	8a/	.	8ff\	.
8C/J	3	.	.	8e/J 8G/	.	8een\J	.	.	.	.	8ee\	-mi-	.	.	8g/J	.	8ee\J	.
!	!	!	!	!	!	!LO:LB:g=original	!	!	!	!	!	!	!	!	!	!	!	!
=93	=93	=93	=93	=93	=93	=93	=93	=93	=93	=93	=93	=93	=93	=93	=93	=93	=93	=93
4F\	.	32a/LLL	.	4f/ 4A/	.	4ff\	.	2ryy	2ryy	2ryy	4ff\	-ni	2ryy	2ryy	4a/	.	4ff\	.
.	.	(32f/	.	.	.	.	.	.	.	.	.	.	.	.	.	.	.	.
.	.	32a/	.	.	.	.	.	.	.	.	.	.	.	.	.	.	.	.
.	.	32cc/JJJ)	.	.	.	.	.	.	.	.	.	.	.	.	.	.	.	.
.	.	(32ff\LLL	.	.	.	.	.	.	.	.	.	.	.	.	.	.	.	.
.	.	32cc\	.	.	.	.	.	.	.	.	.	.	.	.	.	.	.	.
.	.	32ff\)	.	.	.	.	.	.	.	.	.	.	.	.	.	.	.	.
.	.	32aa\JJJ	.	.	.	.	.	.	.	.	.	.	.	.	.	.	.	.
!LO:LB:g=original	!	!	!	!	!	!	!	!	!	!	!	!	!	!	!	!	!	!
8r	.	(32ccc\LLL	.	4r	.	4r	.	.	.	.	4r	.	.	.	4r	.	4r	.
.	.	32aa\	.	.	.	.	.	.	.	.	.	.	.	.	.	.	.	.
.	.	32ddd\	.	.	.	.	.	.	.	.	.	.	.	.	.	.	.	.
.	.	32ccc\JJJ)	.	.	.	.	.	.	.	.	.	.	.	.	.	.	.	.
8A\	3	(32bb-\LLL	.	.	.	.	.	.	.	.	.	.	.	.	.	.	.	.
.	.	32aa\	.	.	.	.	.	.	.	.	.	.	.	.	.	.	.	.
.	.	32gg\	.	.	.	.	.	.	.	.	.	.	.	.	.	.	.	.
.	.	32ff\JJJ)	.	.	.	.	.	.	.	.	.	.	.	.	.	.	.	.
=94	=94	=94	=94	=94	=94	=94	=94	=94	=94	=94	=94	=94	=94	=94	=94	=94	=94	=94
!LO:TX:t=P:problem=mixed beam	!	!	!	!	!	!	!	!	!	!	!	!	!	!	!	!	!	!
8c\L	.	(32ff\LLL	.	8r	.	8r	.	2ryy	2ryy	2ryy	8r	.	2ryy	2ryy	0r	.	0r	.
.	.	32ee\	.	.	.	.	.	.	.	.	.	.	.	.	.	.	.	.
.	.	32gg\	.	.	.	.	.	.	.	.	.	.	.	.	.	.	.	.
.	.	32ff\JJ)	.	.	.	.	.	.	.	.	.	.	.	.	.	.	.	.
!	!	!LO:TX:a:t=|	!	!	!	!	!	!	!	!	!	!	!	!	!	!	!	!
8C/	.	8ee\J	.	8e/L	.	8g/	.	.	.	.	8ee\	qui	.	.	.	.	.	.
8E/	.	4r	.	8g/	.	32g/LLL	.	.	.	.	32ee\LLL	ve-	.	.	.	.	.	.
.	.	.	.	.	.	(32b-/	.	.	.	.	32gg\	.	.	.	.	.	.	.
.	.	.	.	.	.	32a/	.	.	.	.	32ff\	.	.	.	.	.	.	.
.	.	.	.	.	.	32b-/JJJ)	.	.	.	.	32gg\JJJ	.	.	.	.	.	.	.
8C\J	.	.	.	8e/J	.	32cc/LLL	.	.	.	.	32aa\LLL	.	.	.	.	.	.	.
.	.	.	.	.	.	(32b-/	.	.	.	.	32gg\	.	.	.	.	.	.	.
.	.	.	.	.	.	32a/	.	.	.	.	32ff\	.	.	.	.	.	.	.
.	.	.	.	.	.	32g/JJJ)	.	.	.	.	32ee\JJJ	.	.	.	.	.	.	.
=95	=95	=95	=95	=95	=95	=95	=95	=95	=95	=95	=95	=95	=95	=95	=95	=95	=95	=95
4F\	.	32a/LLL	.	4c/	.	4a/	.	2ryy	2ryy	2ryy	4ff\	-nit	2ryy	2ryy	.	.	.	.
.	.	(32f/	.	.	.	.	.	.	.	.	.	.	.	.	.	.	.	.
.	.	32a/	.	.	.	.	.	.	.	.	.	.	.	.	.	.	.	.
.	.	32cc/JJJ)	.	.	.	.	.	.	.	.	.	.	.	.	.	.	.	.
.	.	(32ff\LLL	.	.	.	.	.	.	.	.	.	.	.	.	.	.	.	.
.	.	32cc\	.	.	.	.	.	.	.	.	.	.	.	.	.	.	.	.
.	.	32ff\)	.	.	.	.	.	.	.	.	.	.	.	.	.	.	.	.
.	.	32aa\JJJ	.	.	.	.	.	.	.	.	.	.	.	.	.	.	.	.
8r	.	(32ccc\LLL	.	4r	.	4r	.	.	.	.	4r	.	.	.	.	.	.	.
.	.	32aa\	.	.	.	.	.	.	.	.	.	.	.	.	.	.	.	.
.	.	32ddd\	.	.	.	.	.	.	.	.	.	.	.	.	.	.	.	.
.	.	32ccc\JJJ)	.	.	.	.	.	.	.	.	.	.	.	.	.	.	.	.
8A\	3	(32bb-\LLL	.	.	.	.	.	.	.	.	.	.	.	.	.	.	.	.
.	.	32aa\	.	.	.	.	.	.	.	.	.	.	.	.	.	.	.	.
.	.	32gg\	.	.	.	.	.	.	.	.	.	.	.	.	.	.	.	.
.	.	32ff\JJJ)	.	.	.	.	.	.	.	.	.	.	.	.	.	.	.	.
!	!	!	!	!	!	!	!	!	!	!	!LO:LB:g=original	!	!	!	!	!	!	!
=96	=96	=96	=96	=96	=96	=96	=96	=96	=96	=96	=96	=96	=96	=96	=96	=96	=96	=96
!LO:TX:t=P:problem=mixed beam	!	!	!	!	!	!	!	!	!	!	!	!	!	!	!	!	!	!
8c\L	.	(32ff\LLL	.	8r	.	8r	.	2ryy	2ryy	2ryy	8r	.	2ryy	2ryy	.	.	.	.
.	.	32ee\	.	.	.	.	.	.	.	.	.	.	.	.	.	.	.	.
.	.	32gg\)	.	.	.	.	.	.	.	.	.	.	.	.	.	.	.	.
.	.	32ff\JJ	.	.	.	.	.	.	.	.	.	.	.	.	.	.	.	.
!	!	!LO:TX:a:t=|	!	!	!	!	!	!	!	!	!	!	!	!	!	!	!	!
8C/	.	8ee\J	.	8e/L	.	8g/	.	.	.	.	8ee\	qui	.	.	.	.	.	.
8E/	.	4r	.	8g/	.	32g/LLL	.	.	.	.	32ee\LLL	ve-	.	.	.	.	.	.
.	.	.	.	.	.	(32b-/	.	.	.	.	32gg\	.	.	.	.	.	.	.
.	.	.	.	.	.	32a/	.	.	.	.	32ff\	.	.	.	.	.	.	.
.	.	.	.	.	.	32b-/JJJ)	.	.	.	.	32gg\JJJ	.	.	.	.	.	.	.
8C\J	.	.	.	8e/J	.	32cc/LLL	.	.	.	.	32aa\LLL	.	.	.	.	.	.	.
.	.	.	.	.	.	(32b-/	.	.	.	.	32gg\	.	.	.	.	.	.	.
.	.	.	.	.	.	32a/	.	.	.	.	32ff\	.	.	.	.	.	.	.
.	.	.	.	.	.	32g/JJJ)	.	.	.	.	32ee\JJJ	.	.	.	.	.	.	.
=97	=97	=97	=97	=97	=97	=97	=97	=97	=97	=97	=97	=97	=97	=97	=97	=97	=97	=97
8F\L	.	2ryy	.	8c/L	.	8a/L	.	2ryy	2ryy	2ryy	16gg\LL	.	2ryy	2ryy	.	.	.	.
.	.	.	.	.	.	.	.	.	.	.	16ff\JJ	.	.	.	.	.	.	.
8A\	6	.	.	8c/	.	8a/J	.	.	.	.	8ff\	-nit	.	.	.	.	.	.
8A\	.	.	.	8c/	.	16r	.	.	.	.	16r	.	.	.	.	.	.	.
.	.	.	.	.	.	(16ff\LL	.	.	.	.	16ff\	qui	.	.	.	.	.	.
!	!	!LO:TX:b:t=Verte	!	!	!	!	!	!	!	!	!	!	!	!	!	!	!	!
8A\J	6 5-	.	.	8c/J	.	16ee\	.	.	.	.	16ee\LL	ve-	.	.	.	.	.	.
.	.	.	.	.	.	16ee-X\JJ)	.	.	.	.	16ee-X\JJ	.	.	.	.	.	.	.
!LO:PB:g=original	!	!	!	!	!	!LO:LB:g=original	!	!	!	!	!	!	!	!	!	!	!	!
=98	=98	=98	=98	=98	=98	=98	=98	=98	=98	=98	=98	=98	=98	=98	=98	=98	=98	=98
8B-\L	3	2ryy	.	8f/L	.	(16cc#X\LL	.	2ryy	2ryy	2ryy	16cc#X\LL	.	2ryy	2ryy	0r	.	0r	.
.	_	.	.	.	.	16dd\J)	.	.	.	.	16dd\JJ	.	.	.	.	.	.	.
!	!	!	!	!	!	!LO:TX:a:t=|	!	!	!	!	!	!	!	!	!	!	!	!
8B-\	.	.	.	8f/	.	8.dd\J	.	.	.	.	8.dd\	-nit	.	.	.	.	.	.
8B-\	.	.	.	8d/	.	.	.	.	.	.	.	.	.	.	.	.	.	.
!	!	!	!	!	!	!LO:TX:a:t=|	!	!	!	!	!	!	!	!	!	!	!	!
.	.	.	.	.	.	16ff\LL	.	.	.	.	16ff\	qui	.	.	.	.	.	.
8B-\J	4n 2	.	.	8c/J	.	(16een\	.	.	.	.	16een\LL	ve-	.	.	.	.	.	.
.	.	.	.	.	.	16gg\JJ)	.	.	.	.	16gg\JJ	.	.	.	.	.	.	.
!	!	!	!	!LO:LB:g=original	!	!	!	!	!	!	!	!	!	!	!	!	!	!
=99	=99	=99	=99	=99	=99	=99	=99	=99	=99	=99	=99	=99	=99	=99	=99	=99	=99	=99
8A\L	6	2ryy	.	8c/L	.	(16gg\LL	.	2ryy	2ryy	2ryy	16gg\LL	.	2ryy	2ryy	.	.	.	.
.	.	.	.	.	.	16ff\J)	.	.	.	.	16ff\JJ	.	.	.	.	.	.	.
!	!	!	!	!	!	!LO:TX:a:t=|	!	!	!	!	!	!	!	!	!	!	!	!
8A\	.	.	.	8c/	.	8ff\J	.	.	.	.	8ff\	-nit	.	.	.	.	.	.
!	!	!	!	!	!	!	!	!	!	!	!LO:LB:g=original	!	!	!	!	!	!	!
8A\	.	.	.	8c/	.	16r	.	.	.	.	16r	.	.	.	.	.	.	.
.	.	.	.	.	.	(16ff\LL	.	.	.	.	16ff\	qui	.	.	.	.	.	.
8A\J	6 5-	.	.	8c/J	.	16ee\	.	.	.	.	16ee\LL	ve-	.	.	.	.	.	.
.	.	.	.	.	.	16ee-X\JJ)	.	.	.	.	16ee-X\JJ	.	.	.	.	.	.	.
=100	=100	=100	=100	=100	=100	=100	=100	=100	=100	=100	=100	=100	=100	=100	=100	=100	=100	=100
!LO:TX:t=P:problem=mixed beam	!	!	!	!LO:TX:t=P:problem=mixed beam	!	!	!	!	!	!	!	!	!	!	!	!	!	!
8B-\L	6	2ryy	.	8d/L	.	16dd\LL	.	2ryy	2ryy	2ryy	16dd\LL	.	2ryy	2ryy	.	.	.	.
.	_	.	.	.	.	32een\L	.	.	.	.	32een\L	.	.	.	.	.	.	.
.	.	.	.	.	.	(32ff\JJJ	.	.	.	.	32ff\JJJ	.	.	.	.	.	.	.
8B-\	.	.	.	8dd\J	.	32gg\LLL	.	.	.	.	32gg\LLL	.	.	.	.	.	.	.
.	.	.	.	.	.	32aa\	.	.	.	.	32aa\	.	.	.	.	.	.	.
.	.	.	.	.	.	32bb-\	.	.	.	.	32bb-\	.	.	.	.	.	.	.
.	.	.	.	.	.	32gg\JJJ)	.	.	.	.	32gg\JJJ	.	.	.	.	.	.	.
8c\	4	.	.	8a/L	.	8ff\L	.	.	.	.	8ff\L	.	.	.	.	.	.	.
8C/J	n	.	.	8g/J	.	8ee\J	.	.	.	.	8ee\J	.	.	.	.	.	.	.
=101	=101	=101	=101	=101	=101	=101	=101	=101	=101	=101	=101	=101	=101	=101	=101	=101	=101	=101
4F\	.	2ryy	.	4a/	.	(32ff\LLL	.	2ryy	2ryy	2ryy	32ff\LLL	-nit	2ryy	2ryy	.	.	.	.
.	.	.	.	.	.	32ee\)	.	.	.	.	32cc\JJJ	.	.	.	.	.	.	.
.	.	.	.	.	.	(32aa\	.	.	.	.	32aa\LLL	in	.	.	.	.	.	.
.	.	.	.	.	.	32gg\JJJ)	.	.	.	.	32gg\JJJ	.	.	.	.	.	.	.
.	.	.	.	.	.	(32ff\LLL	.	.	.	.	32ff\LLL	no-	.	.	.	.	.	.
.	.	.	.	.	.	32dd\)	.	.	.	.	32cc\	.	.	.	.	.	.	.
.	.	.	.	.	.	(32aa\	.	.	.	.	32aa\	.	.	.	.	.	.	.
.	.	.	.	.	.	32gg\JJJ)	.	.	.	.	32gg\JJJ	.	.	.	.	.	.	.
8r	.	.	.	8r	.	(32ff\LLL	.	.	.	.	32ff\LLL	.	.	.	.	.	.	.
.	.	.	.	.	.	32ee\)	.	.	.	.	32ee\	.	.	.	.	.	.	.
.	.	.	.	.	.	(32dd\	.	.	.	.	32dd\	.	.	.	.	.	.	.
.	.	.	.	.	.	32cc\JJJ)	.	.	.	.	32cc\JJJ	.	.	.	.	.	.	.
!	!	!	!	!	!	!LO:LB:g=original	!	!	!	!	!	!	!	!	!	!	!	!
8A\	6	.	.	8c/	.	32b-/LLL	.	.	.	.	32b-\LLL	.	.	.	.	.	.	.
.	.	.	.	.	.	(32a/	.	.	.	.	32a\	.	.	.	.	.	.	.
.	.	.	.	.	.	(32g/)	.	.	.	.	32g\	.	.	.	.	.	.	.
.	.	.	.	.	.	32f/JJJ)	.	.	.	.	32f\JJJ	.	.	.	.	.	.	.
!	!	!	!	!	!	!	!	!	!	!	!LO:LB:g=original	!	!	!	!	!	!	!
=102	=102	=102	=102	=102	=102	=102	=102	=102	=102	=102	=102	=102	=102	=102	=102	=102	=102	=102
!LO:TX:t=P:problem=mixed beam	!	!	!	!	!	!	!	!	!	!	!	!	!	!	!	!	!	!
8B-\L	6	2ryy	.	8d/L	.	(32f#X\LLL	.	2ryy	2ryy	2ryy	32f#X\LLL	.	2ryy	2ryy	8r	.	8r	.
.	_	.	.	.	.	32g\	.	.	.	.	32g\	.	.	.	.	.	.	.
.	.	.	.	.	.	32b-\)	.	.	.	.	32b-\	.	.	.	.	.	.	.
.	.	.	.	.	.	32dd\JJJ	.	.	.	.	32dd\JJJ	.	.	.	.	.	.	.
8B-\	.	.	.	8g/	.	(32cc\LLL	.	.	.	.	32cc\LLL	-mi-	.	.	8g/L	.	8b-/L	.
.	.	.	.	.	.	32b-\)	.	.	.	.	32b-\JJJ	.	.	.	.	.	.	.
.	.	.	.	.	.	(32dd\	.	.	.	.	32dd\LLL	-ne	.	.	.	.	.	.
.	.	.	.	.	.	32b-\JJJ)	.	.	.	.	32b-\JJJ	.	.	.	.	.	.	.
8c\	4	.	.	8f/	.	8a/L	.	.	.	.	8a\	Do-	.	.	8f/	.	8a/	.
8C/J	3	.	.	8e/J	.	8g/J	.	.	.	.	8g\	-mi-	.	.	8e/J	.	8g/J	.
!	!	!	!	!LO:PB:g=original	!	!	!	!	!	!	!	!	!	!	!	!	!	!
=103	=103	=103	=103	=103	=103	=103	=103	=103	=103	=103	=103	=103	=103	=103	=103	=103	=103	=103
!LO:TX:t=P:problem=mixed beam	!	!	!	!	!	!	!	!	!	!	!	!	!	!	!	!	!	!
8F\L	.	(32gg\LLL	.	8c/L	.	8a/L	.	2ryy	2ryy	2ryy	4a\	-ni	2ryy	2ryy	4f/	.	4a/	.
.	.	32ff\	.	.	.	.	.	.	.	.	.	.	.	.	.	.	.	.
.	.	32ee\)	.	.	.	.	.	.	.	.	.	.	.	.	.	.	.	.
.	.	32ff\JJ	.	.	.	.	.	.	.	.	.	.	.	.	.	.	.	.
!	!	!LO:TX:a:t=|	!	!	!	!	!	!	!	!	!	!	!	!	!	!	!	!
8FF/J	.	8cc\J	.	8c/J	.	8a/J	.	.	.	.	.	.	.	.	.	.	.	.
8r	.	(32ff\LLL	.	8r	.	8r	.	.	.	.	4r	.	.	.	4r	.	4r	.
.	.	32ee\	.	.	.	.	.	.	.	.	.	.	.	.	.	.	.	.
.	.	32ff\	.	.	.	.	.	.	.	.	.	.	.	.	.	.	.	.
.	.	32gg\JJJ)	.	.	.	.	.	.	.	.	.	.	.	.	.	.	.	.
8F\	3	(32ff\LLL	.	8c/	.	8a/	.	.	.	.	.	.	.	.	.	.	.	.
.	.	32ee\	.	.	.	.	.	.	.	.	.	.	.	.	.	.	.	.
.	.	32dd\)	.	.	.	.	.	.	.	.	.	.	.	.	.	.	.	.
.	.	32cc\JJJ	.	.	.	.	.	.	.	.	.	.	.	.	.	.	.	.
!LO:LB:g=original	!	!	!	!	!	!	!	!	!	!	!	!	!	!	!	!	!	!
=104	=104	=104	=104	=104	=104	=104	=104	=104	=104	=104	=104	=104	=104	=104	=104	=104	=104	=104
8G\L	.	(16cc\LL	.	8c/L	.	8e/L	.	2ryy	2ryy	2ryy	0r	.	2ryy	2ryy	1r	.	1r	.
.	.	16b-\J)	.	.	.	.	.	.	.	.	.	.	.	.	.	.	.	.
8G\J	.	8b-w\J	.	8c/J	.	8e/J	.	.	.	.	.	.	.	.	.	.	.	.
8r	.	(32b-\LLL	.	8r	.	8r	.	.	.	.	.	.	.	.	.	.	.	.
.	.	32cc\)	.	.	.	.	.	.	.	.	.	.	.	.	.	.	.	.
.	.	(32ee\	.	.	.	.	.	.	.	.	.	.	.	.	.	.	.	.
.	.	32ff\JJJ)	.	.	.	.	.	.	.	.	.	.	.	.	.	.	.	.
8E\	3	(32gg\LLL	.	8c/	.	8g/	.	.	.	.	.	.	.	.	.	.	.	.
.	.	32ee\)	.	.	.	.	.	.	.	.	.	.	.	.	.	.	.	.
.	.	(32cc\	.	.	.	.	.	.	.	.	.	.	.	.	.	.	.	.
.	.	32b-\JJJ)	.	.	.	.	.	.	.	.	.	.	.	.	.	.	.	.
=105	=105	=105	=105	=105	=105	=105	=105	=105	=105	=105	=105	=105	=105	=105	=105	=105	=105	=105
8F\L	.	(16b-/LL	.	8c/L	.	(16g/LL	.	2ryy	2ryy	2ryy	.	.	2ryy	2ryy	.	.	.	.
.	.	16a/J)	.	.	.	16f/J)	.	.	.	.	.	.	.	.	.	.	.	.
!	!	!	!	!	!	!LO:TX:b:t=|	!	!	!	!	!	!	!	!	!	!	!	!
8F\J	.	8aW/J	.	8c/J	.	8f/J	.	.	.	.	.	.	.	.	.	.	.	.
8r	.	(32ff\LLL	.	8r	.	8r	.	.	.	.	.	.	.	.	.	.	.	.
.	.	32ee\)	.	.	.	.	.	.	.	.	.	.	.	.	.	.	.	.
.	.	(32gg\	.	.	.	.	.	.	.	.	.	.	.	.	.	.	.	.
.	.	32ff\JJJ)	.	.	.	.	.	.	.	.	.	.	.	.	.	.	.	.
8A\	3	(32ee\LLL	.	8c/	.	8a/	.	.	.	.	.	.	.	.	.	.	.	.
.	.	32ee-X\	.	.	.	.	.	.	.	.	.	.	.	.	.	.	.	.
.	.	32dd\)	.	.	.	.	.	.	.	.	.	.	.	.	.	.	.	.
.	.	32cc\JJJ	.	.	.	.	.	.	.	.	.	.	.	.	.	.	.	.
!	!	!	!	!	!	!LO:LB:g=original	!	!	!	!	!	!	!	!	!	!	!	!
=106	=106	=106	=106	=106	=106	=106	=106	=106	=106	=106	=106	=106	=106	=106	=106	=106	=106	=106
8B-\L	3	(32cc#X\LLL	.	8d/L	.	8b-/L	.	2ryy	2ryy	2ryy	.	.	2ryy	2ryy	2r	.	2r	.
.	.	32dd\	.	.	.	.	.	.	.	.	.	.	.	.	.	.	.	.
.	.	32cc#\	.	.	.	.	.	.	.	.	.	.	.	.	.	.	.	.
.	.	32dd\JJJ)	.	.	.	.	.	.	.	.	.	.	.	.	.	.	.	.
8B-\	_	(32ee-X\LLL	.	8d/	.	8b-/	.	.	.	.	.	.	.	.	.	.	.	.
.	.	32een\	.	.	.	.	.	.	.	.	.	.	.	.	.	.	.	.
.	.	32ff\)	.	.	.	.	.	.	.	.	.	.	.	.	.	.	.	.
.	.	32ff#X\JJJ	.	.	.	.	.	.	.	.	.	.	.	.	.	.	.	.
8B-\	.	(32gg\LLL	.	8d/	.	8b-/	.	.	.	.	.	.	.	.	.	.	.	.
.	.	32ff#\	.	.	.	.	.	.	.	.	.	.	.	.	.	.	.	.
.	.	32gg\	.	.	.	.	.	.	.	.	.	.	.	.	.	.	.	.
.	.	32aa\JJJ)	.	.	.	.	.	.	.	.	.	.	.	.	.	.	.	.
8Bn\J	.	(32gg\LLL	.	8d/J	.	8a/J	.	.	.	.	.	.	.	.	.	.	.	.
.	.	32ffn\)	.	.	.	.	.	.	.	.	.	.	.	.	.	.	.	.
.	.	32ee\	.	.	.	.	.	.	.	.	.	.	.	.	.	.	.	.
.	x	32ff\JJJ	.	.	.	.	.	.	.	.	.	.	.	.	.	.	.	.
!LO:LB:g=original	!	!	!	!	!	!	!	!	!	!	!	!	!	!	!LO:LB:g=original	!	!	!
=107	=107	=107	=107	=107	=107	=107	=107	=107	=107	=107	=107	=107	=107	=107	=107	=107	=107	=107
!LO:TX:t=P:problem=mixed beam	!	!	!	!	!	!	!	!	!	!	!	!	!	!	!	!	!	!
.	.	8qgg/	.	.	.	.	.	.	.	.	.	.	.	.	.	.	.	.
8c\L	.	16ff\LL	.	8c/L	.	16a/LL	.	2ryy	2ryy	2ryy	.	.	2ryy	2ryy	4r	.	4r	.
.	.	32ee\L	.	.	.	32g/L	.	.	.	.	.	.	.	.	.	.	.	.
.	.	32ff\JJ	.	.	.	32a/JJ	.	.	.	.	.	.	.	.	.	.	.	.
8C/J	.	8ee\J	.	8c/J	.	8g/J	.	.	.	.	.	.	.	.	.	.	.	.
!	!	!	!	!	!	!	!	!	!	!	!	!	!	!	!	!LO:DY:a	!	!LO:DY:a
8c\L	3_	4r	.	16r	.	16r	.	.	.	.	.	.	.	.	4cc\	f	4cc\	f
!	!	!	!	!	!	!LO:TX:a:t=dol&colon;	!	!	!	!	!	!	!	!	!	!	!	!
!	!	!	!	!LO:TX:a:t=dolce&colon;	!	!LO:TX:a:t=|	!	!	!	!	!	!	!	!	!	!	!	!
.	.	.	.	16e'/LL	.	16ee\LL	.	.	.	.	.	.	.	.	.	.	.	.
!	!	!	!	!LO:TX:b:t=|	!LO:DY:a	!LO:TX:a:t=|	!	!	!	!	!	!	!	!	!	!	!	!
8B-X\J	.	.	.	16e/	f	16ee\	.	.	.	.	.	.	.	.	.	.	.	.
!	!	!	!	!LO:TX:b:t=|	!	!LO:TX:a:t=|	!	!	!	!	!	!	!	!	!	!	!	!
.	x	.	.	16e/JJ	.	16ee\JJ	.	.	.	.	.	.	.	.	.	.	.	.
!	!	!	!	!LO:LB:g=original	!	!	!	!	!	!	!	!	!	!	!	!	!	!
=108	=108	=108	=108	=108	=108	=108	=108	=108	=108	=108	=108	=108	=108	=108	=108	=108	=108	=108
8A\L	6_	2ryy	.	32f/LLL	.	(32ff\LLL	.	2ryy	2ryy	2ryy	0r	.	2ryy	2ryy	2cc\	.	2cc\	.
.	.	.	.	(32e/	.	32ee\	.	.	.	.	.	.	.	.	.	.	.	.
.	.	.	.	32f/	.	32ff\	.	.	.	.	.	.	.	.	.	.	.	.
.	.	.	.	32g/JJ)	.	32gg\JJ)	.	.	.	.	.	.	.	.	.	.	.	.
!	!	!	!	!LO:TX:b:t=|	!	!LO:TX:a:t=|	!	!	!	!	!	!	!	!	!	!	!	!
8c\	.	.	.	8a/J	.	8aa\J	.	.	.	.	.	.	.	.	.	.	.	.
8A\	.	.	.	16r	.	16r	.	.	.	.	.	.	.	.	.	.	.	.
!	!	!	!	!LO:TX:b:t=|	!	!LO:TX:a:t=|	!	!	!	!	!	!	!	!	!	!	!	!
.	x	.	.	16f/LL	.	16ff\LL	.	.	.	.	.	.	.	.	.	.	.	.
!	!	!	!	!LO:TX:b:t=|	!	!LO:TX:a:t=|	!	!	!	!	!	!	!	!	!	!	!	!
8F\J	.	.	.	16g/	.	16aa\	.	.	.	.	.	.	.	.	.	.	.	.
!	!	!	!	!LO:TX:b:t=|	!	!LO:TX:a:t=|	!	!	!	!	!	!	!	!	!	!	!	!
.	.	.	.	16cc/JJ	.	16ccc\JJ	.	.	.	.	.	.	.	.	.	.	.	.
!	!	!	!	!	!	!	!	!	!	!	!	!	!	!	!	!	!LO:LB:g=original	!
=109	=109	=109	=109	=109	=109	=109	=109	=109	=109	=109	=109	=109	=109	=109	=109	=109	=109	=109
8E\L	6 5	2ryy	.	(16cc/LL	.	(16ccc\LL	.	2ryy	2ryy	2ryy	.	.	2ryy	2ryy	2cc\	.	2cc\	.
.	.	.	.	16b-/J)	.	16bb-\J)	.	.	.	.	.	.	.	.	.	.	.	.
!	!	!	!	!LO:TX:b:t=|	!	!LO:TX:a:t=|	!	!	!	!	!	!	!	!	!	!	!	!
8C\	.	.	.	8g/J	.	8gg\J	.	.	.	.	.	.	.	.	.	.	.	.
8c\	3_	.	.	16r	.	16r	.	.	.	.	.	.	.	.	.	.	.	.
!	!	!	!	!LO:TX:b:t=|	!	!LO:TX:a:t=|	!	!	!	!	!	!	!	!	!	!	!	!
.	.	.	.	16e/LL	.	16ee\LL	.	.	.	.	.	.	.	.	.	.	.	.
!	!	!	!	!LO:TX:b:t=|	!	!LO:TX:a:t=|	!	!	!	!	!	!	!	!	!	!	!	!
8B-\J	.	.	.	16e/	.	16ee\	.	.	.	.	.	.	.	.	.	.	.	.
!	!	!	!	!LO:TX:b:t=|	!	!LO:TX:a:t=|	!	!	!	!	!	!	!	!	!	!	!	!
.	x	.	.	16e/JJ	.	16ee\JJ	.	.	.	.	.	.	.	.	.	.	.	.
=110	=110	=110	=110	=110	=110	=110	=110	=110	=110	=110	=110	=110	=110	=110	=110	=110	=110	=110
8A\L	6	2ryy	.	(32f/LLL	.	(32ff\LLL	.	2ryy	2ryy	2ryy	.	.	2ryy	2ryy	2cc\	.	2cc\	.
.	_	.	.	32e/)	.	32ee\	.	.	.	.	.	.	.	.	.	.	.	.
.	.	.	.	32f/	.	32ff\	.	.	.	.	.	.	.	.	.	.	.	.
.	.	.	.	32g/JJ	.	32gg\JJ)	.	.	.	.	.	.	.	.	.	.	.	.
!	!	!	!	!LO:TX:b:t=|	!	!LO:TX:a:t=|	!	!	!	!	!	!	!	!	!	!	!	!
8c\	.	.	.	8a/J	.	8aa\J	.	.	.	.	.	.	.	.	.	.	.	.
!	!	!	!	!	!	!LO:LB:g=original	!	!	!	!	!	!	!	!	!	!	!	!
8A\	.	.	.	16r	.	16r	.	.	.	.	.	.	.	.	.	.	.	.
!	!	!	!	!LO:TX:b:t=|	!	!LO:TX:a:t=|	!	!	!	!	!	!	!	!	!	!	!	!
.	.	.	.	16f/LL	.	16ff\LL	.	.	.	.	.	.	.	.	.	.	.	.
!	!	!	!	!LO:TX:b:t=|	!	!LO:TX:a:t=|	!	!	!	!	!	!	!	!	!	!	!	!
8F\J	x	.	.	16a/	.	16aa\	.	.	.	.	.	.	.	.	.	.	.	.
!	!	!	!	!LO:TX:b:t=|	!	!LO:TX:a:t=|	!	!	!	!	!	!	!	!	!	!	!	!
.	.	.	.	16cc/JJ	.	16ccc\JJ	.	.	.	.	.	.	.	.	.	.	.	.
=111	=111	=111	=111	=111	=111	=111	=111	=111	=111	=111	=111	=111	=111	=111	=111	=111	=111	=111
8E\L	6 5	2ryy	.	(16cc/LL	.	(16ccc\LL	.	2ryy	2ryy	2ryy	.	.	2ryy	2ryy	2cc\	.	2cc\	.
.	.	.	.	16b-/J)	.	16bb-\J)	.	.	.	.	.	.	.	.	.	.	.	.
!	!	!	!	!LO:TX:b:t=|	!	!LO:TX:a:t=|	!	!	!	!	!	!	!	!	!	!	!	!
8C\	.	.	.	8g/J	.	8gg\J	.	.	.	.	.	.	.	.	.	.	.	.
8c\	3	.	.	16r	.	16r	.	.	.	.	.	.	.	.	.	.	.	.
!	!	!	!	!LO:TX:b:t=|	!	!LO:TX:a:t=|	!	!	!	!	!	!	!	!	!	!	!	!
.	_	.	.	16e/LL	.	16ee\LL	.	.	.	.	.	.	.	.	.	.	.	.
!	!	!	!	!LO:TX:b:t=|	!	!LO:TX:a:t=|	!	!	!	!	!	!	!	!	!	!	!	!
8B-\J	.	.	.	16e/	.	16ee\	.	.	.	.	.	.	.	.	.	.	.	.
!	!	!	!	!LO:TX:b:t=|	!	!LO:TX:a:t=|	!	!	!	!	!	!	!	!	!	!	!	!
.	x	.	.	16e/JJ	.	16ee\JJ	.	.	.	.	.	.	.	.	.	.	.	.
!	!	!	!	!LO:LB:g=original	!	!	!	!	!	!	!	!	!	!	!	!	!	!
=112	=112	=112	=112	=112	=112	=112	=112	=112	=112	=112	=112	=112	=112	=112	=112	=112	=112	=112
8A\L	6	2ryy	.	(16f/LL	.	(16ff\LL	.	2ryy	2ryy	2ryy	0r	.	2ryy	2ryy	2cc\	.	2cc\	.
.	_	.	.	16a/JJ)	.	16aa\JJ)	.	.	.	.	.	.	.	.	.	.	.	.
8A\	.	.	.	4cc\	.	4ccc\	.	.	.	.	.	.	.	.	.	.	.	.
8A\	.	.	.	.	.	.	.	.	.	.	.	.	.	.	.	.	.	.
8A\J	.	.	.	32b-/LLL	.	32bb-\LLL	.	.	.	.	.	.	.	.	.	.	.	.
.	x	.	.	(32a/	.	(32aa\	.	.	.	.	.	.	.	.	.	.	.	.
.	.	.	.	(32g/)	.	32gg\	.	.	.	.	.	.	.	.	.	.	.	.
.	.	.	.	32f/JJJ)	.	32ff\JJJ)	.	.	.	.	.	.	.	.	.	.	.	.
!LO:LB:g=original	!	!	!	!	!	!	!	!	!	!	!	!	!	!	!	!	!	!
=113	=113	=113	=113	=113	=113	=113	=113	=113	=113	=113	=113	=113	=113	=113	=113	=113	=113	=113
8B-\L	.	2ryy	.	(16e/LL	.	(16ee\LL	.	2ryy	2ryy	2ryy	.	.	2ryy	2ryy	8b-\L	.	8dd\L	.
.	.	.	.	16d/J)	.	16dd\J)	.	.	.	.	.	.	.	.	.	.	.	.
16B-\L	.	.	.	8.d/J	.	8.dd\J	.	.	.	.	.	.	.	.	16b-\L	.	16dd\L	.
16A\JJ	.	.	.	.	.	.	.	.	.	.	.	.	.	.	16a\JJ	.	16cc\JJ	.
8B-\L	6	.	.	.	.	.	.	.	.	.	.	.	.	.	8b-\L	.	8dd\L	.
.	.	.	.	32c/LLL	.	32cc\LLL	.	.	.	.	.	.	.	.	.	.	.	.
.	.	.	.	32d/JJJ	.	32dd\JJJ	.	.	.	.	.	.	.	.	.	.	.	.
8G\J	3	.	.	32f/LLL	.	(32ff\LLL	.	.	.	.	.	.	.	.	8b-\J	.	8ee\J	.
.	.	.	.	(32e/	.	32ee\	.	.	.	.	.	.	.	.	.	.	.	.
.	.	.	.	32d/)	.	32dd\	.	.	.	.	.	.	.	.	.	.	.	.
.	.	.	.	32e/JJJ	.	32ee\JJJ)	.	.	.	.	.	.	.	.	.	.	.	.
=114	=114	=114	=114	=114	=114	=114	=114	=114	=114	=114	=114	=114	=114	=114	=114	=114	=114	=114
!LO:TX:t=P:problem=mixed beam	!	!	!	!LO:TUP:a:problem=klamra łukowa	!	!LO:TUP:a:problem=klamra łukowa	!	!	!	!	!	!	!	!	!	!	!	!
8F\L	.	2ryy	.	24f/LL	.	24ff\LL	.	2ryy	2ryy	2ryy	.	.	2ryy	2ryy	8a/L	.	8ff\L	.
.	.	.	.	24a/	.	24aa\	.	.	.	.	.	.	.	.	.	.	.	.
.	.	.	.	24cc/JJ	.	24ccc\JJ	.	.	.	.	.	.	.	.	.	.	.	.
!	!	!	!	!	!	!LO:LB:g=original	!	!	!	!	!	!	!	!	!	!	!	!
!	!	!	!	!LO:TUP:a:problem=klamra łukowa	!	!LO:TUP:a:problem=klamra łukowa	!	!	!	!	!	!	!	!	!	!	!	!
8B-\	6	.	.	24dd\LL	.	24bb-\LL	.	.	.	.	.	.	.	.	8b-/	.	8gg\	.
.	.	.	.	24cc\	.	24aa\	.	.	.	.	.	.	.	.	.	.	.	.
.	.	.	.	24b-\JJ	.	24gg\JJ	.	.	.	.	.	.	.	.	.	.	.	.
8c\	4	.	.	8a/L	.	8ff\L	.	.	.	.	.	.	.	.	8a/	.	8ff\	.
8C/J	.3	.	.	8g/J	.	8ee\J	.	.	.	.	.	.	.	.	8g/J	.	8ee\J	.
=115	=115	=115	=115	=115	=115	=115	=115	=115	=115	=115	=115	=115	=115	=115	=115	=115	=115	=115
!	!	!	!	!	!LO:DY:a	!LO:TX:t=P:problem=mixed beam	!	!	!	!	!	!	!	!	!	!	!	!
8F\L	.	(32ff\LLL	.	8a/L	p	8ff\L	.	2ryy	2ryy	2ryy	.	.	2ryy	2ryy	4a/	.	4ff\	.
.	.	32ee\	.	.	.	.	.	.	.	.	.	.	.	.	.	.	.	.
.	.	32ff\	.	.	.	.	.	.	.	.	.	.	.	.	.	.	.	.
.	.	32gg\JJJ)	.	.	.	.	.	.	.	.	.	.	.	.	.	.	.	.
!	!	!LO:TX:a:t=|	!	!	!	!	!LO:DY:a	!	!	!	!	!	!	!	!	!	!	!
8A\	3	16ff\LL	.	8c/	.	8f/	p	.	.	.	.	.	.	.	.	.	.	.
!	!	!LO:TX:a:t=|	!	!	!	!	!	!	!	!	!	!	!	!	!	!	!	!
.	.	16ff\JJ	.	.	.	.	.	.	.	.	.	.	.	.	.	.	.	.
8A\	_	(32ff\LLL	.	8c/	.	8f/	.	.	.	.	.	.	.	.	4r	.	4r	.
.	.	32ee\)	.	.	.	.	.	.	.	.	.	.	.	.	.	.	.	.
.	.	(32aa\	.	.	.	.	.	.	.	.	.	.	.	.	.	.	.	.
.	.	32gg\JJJ)	.	.	.	.	.	.	.	.	.	.	.	.	.	.	.	.
8A\J	.	(32ff\LLL	.	8c/J	.	8f/J	.	.	.	.	.	.	.	.	.	.	.	.
.	.	32ee\)	.	.	.	.	.	.	.	.	.	.	.	.	.	.	.	.
.	.	(32dd\	.	.	.	.	.	.	.	.	.	.	.	.	.	.	.	.
.	x	32cc\JJJ)	.	.	.	.	.	.	.	.	.	.	.	.	.	.	.	.
=116	=116	=116	=116	=116	=116	=116	=116	=116	=116	=116	=116	=116	=116	=116	=116	=116	=116	=116
8B-\L	.	(16cc#X\LL	.	8d/L	.	8f/L	.	2ryy	2ryy	2ryy	0r	.	2ryy	2ryy	1r	.	1r	.
.	.	16dd\J)	.	.	.	.	.	.	.	.	.	.	.	.	.	.	.	.
8B-\	.	8ddw\J	.	8d/	.	8f/	.	.	.	.	.	.	.	.	.	.	.	.
8B-\	3	(32dd\LLL	.	8d/	.	8g/	.	.	.	.	.	.	.	.	.	.	.	.
.	.	32ee\	.	.	.	.	.	.	.	.	.	.	.	.	.	.	.	.
.	.	32ff\	.	.	.	.	.	.	.	.	.	.	.	.	.	.	.	.
.	.	32gg\JJJ)	.	.	.	.	.	.	.	.	.	.	.	.	.	.	.	.
8B-\J	2	(32ff\LLL	.	8c/J	.	8g/J	.	.	.	.	.	.	.	.	.	.	.	.
.	.	32ee\	.	.	.	.	.	.	.	.	.	.	.	.	.	.	.	.
.	.	32dd\)	.	.	.	.	.	.	.	.	.	.	.	.	.	.	.	.
.	.	32ee\JJJ	.	.	.	.	.	.	.	.	.	.	.	.	.	.	.	.
!LO:LB:g=original	!	!	!	!LO:LB:g=original	!	!	!	!	!	!	!	!	!	!	!	!	!	!
=117	=117	=117	=117	=117	=117	=117	=117	=117	=117	=117	=117	=117	=117	=117	=117	=117	=117	=117
!LO:TX:t=P:problem=mixed beam	!	!	!	!	!	!	!	!	!	!	!	!	!	!	!	!	!	!
8A\L	3	(32ff\LLL	.	8c/L	.	8a/L	.	2ryy	2ryy	2ryy	.	.	2ryy	2ryy	.	.	.	.
.	.	32ee\)	.	.	.	.	.	.	.	.	.	.	.	.	.	.	.	.
.	.	(32ff\	.	.	.	.	.	.	.	.	.	.	.	.	.	.	.	.
.	.	32ff#X\JJJ)	.	.	.	.	.	.	.	.	.	.	.	.	.	.	.	.
8B-\	3	(32gg\LLL	.	8d/	.	8b-/	.	.	.	.	.	.	.	.	.	.	.	.
.	.	32aa\)	.	.	.	.	.	.	.	.	.	.	.	.	.	.	.	.
.	.	(32bb-\	.	.	.	.	.	.	.	.	.	.	.	.	.	.	.	.
.	.	32gg\JJJ)	.	.	.	.	.	.	.	.	.	.	.	.	.	.	.	.
8c\	.	8ffn\L	.	8c/	.	8a/	.	.	.	.	.	.	.	.	.	.	.	.
8C/J	.	8eeW\J	.	8c/J	.	8g/J	.	.	.	.	.	.	.	.	.	.	.	.
!	!	!	!	!	!	!	!	!	!	!	!	!	!	!	!LO:LB:g=original	!	!	!
=118	=118	=118	=118	=118	=118	=118	=118	=118	=118	=118	=118	=118	=118	=118	=118	=118	=118	=118
!	!	!	!	!LO:TX:a:t=mezavoce&colon;	!	!	!	!	!	!	!	!	!	!	!	!	!	!
8F\L	.	(16.ff\LL	.	8c/L	.	(16.a/LL	.	2ryy	2ryy	2ryy	.	.	2ryy	2ryy	8r	.	8r	.
.	.	32aa\JJk)	.	.	.	32cc/JJk)	.	.	.	.	.	.	.	.	.	.	.	.
!	!	!	!	!	!	!	!	!	!	!	!	!	!	!	!	!LO:DY:a:t=pio&colon;	!	!LO:DY:a:t=pio&colon;
8F\	.	16r	.	8c/J	.	16r	.	.	.	.	.	.	.	.	(8a/L	p	8cc\L	p
.	.	16cc\	.	.	.	16aW/	.	.	.	.	.	.	.	.	.	.	.	.
8F\	.	(16dd\LL	.	8d/L	.	(16b-/LL	.	.	.	.	.	.	.	.	8b-/	.	(8dd\	.
.	.	(16ff\)	.	.	.	16dd/)	.	.	.	.	.	.	.	.	.	.	.	.
8F\J	.	16ee\	.	8e/J	.	(16g/	.	.	.	.	.	.	.	.	8g/J)	.	8ee\J)	.
.	.	16gg\JJ)	.	.	.	16b-/JJ)	.	.	.	.	.	.	.	.	.	.	.	.
!	!	!	!	!	!	!	!	!	!	!	!	!	!	!	!	!	!LO:LB:g=original	!
=119	=119	=119	=119	=119	=119	=119	=119	=119	=119	=119	=119	=119	=119	=119	=119	=119	=119	=119
!	!	!	!	!	!	!	!	!	!	!	!	!	!	!	!LO:TX:b:t=|	!	!	!
8F\L	.	(16.ff\LL	.	8f/L	.	(16.a/LL	.	2ryy	2ryy	2ryy	.	.	2ryy	2ryy	8a/L	.	(8ff\L	.
.	.	32aa\JJk)	.	.	.	32cc/JJk)	.	.	.	.	.	.	.	.	.	.	.	.
!	!	!	!	!	!	!LO:LB:g=original	!	!	!	!	!	!	!	!	!	!	!	!
8F\	.	16r	.	8c/	.	16r	.	.	.	.	.	.	.	.	(8a/	.	8cc\	.
.	.	16ccW\	.	.	.	16aW/	.	.	.	.	.	.	.	.	.	.	.	.
8F\	.	(16dd\LL	.	8d/	.	(16b-/LL	.	.	.	.	.	.	.	.	8b-/	.	8dd\	.
.	.	(16ff\)	.	.	.	16dd/)	.	.	.	.	.	.	.	.	.	.	.	.
8F\J	.	16ee\	.	8e/J	.	(16g/	.	.	.	.	.	.	.	.	8g/J)	.	8ee\J)	.
.	.	16gg\JJ)	.	.	.	16b-/JJ)	.	.	.	.	.	.	.	.	.	.	.	.
=120	=120	=120	=120	=120	=120	=120	=120	=120	=120	=120	=120	=120	=120	=120	=120	=120	=120	=120
!LO:TX:t=P:problem=mixed beam	!	!	!	!	!	!	!	!	!	!	!	!	!	!	!	!	!	!
8F\L	.	(4gg\	.	4e/	.	(4b-/	.	2ryy	2ryy	2ryy	2r	.	2ryy	2ryy	(4g/	.	(4ee\	.
8FF/	.	.	.	.	.	.	.	.	.	.	.	.	.	.	.	.	.	.
!	!	!	!	!	!	!	!	!	!	!	!	!	!	!	!LO:TX:b:t=Seque Agnus	!	!LO:TX:b:t=Seque Agnus	!
8F\J	.	8ff\)	.	8f/	.	8a/)	.	.	.	.	.	.	.	.	8a/)	.	8ff\)	.
!	!	!	!	!	!	!LO:TX:b:t=Verte Agnus	!	!	!	!	!	!	!	!	!	!	!	!
8r	.	8r	.	8r	.	8r	.	.	.	.	.	.	.	.	8r	.	8r	.
==	==	==	==	==	==	==	==	==	==	==	==	==	==	==	==	==	==	==
*-	*-	*-	*-	*-	*-	*-	*-	*-	*-	*-	*-	*-	*-	*-	*-	*-	*-	*-
!!!system-decoration: [(s1,s2)][(s3,s4)][(s5,s6,s7,s8)][(s9,s10)]{(s11,s12)}
!!!RDF**dynam: p = p:
!!!RDF**dynam: f = f:
!!!RDF**kern: > = above
!!!RDF**kern: < = below
!!!ENC: Berenika Jozajtis
!!!END: 2020-07-14
!!!ENC: Leszek Kubiak
!!!END: 2021-11-24
